%
(Header)
(Generated by gcodetools from Inkscape.)
(Using default header. To add your own header create file "header" in the output dir.)
M3
(Header end.)
G21 (All units in mm)
(Tool diameter should be at least 10.0 mm)
(Depth, as a function of radius w, must be 10)
(Rapid feeds use safe Z=5.0 mm)
(Material surface at Z=0.0 mm)
(Change tool to Cylindrical cutter)

G00 Z5.000000
G00 X389.433508 Y-1834.931110

G01 Z-4.999990 F100.0(Penetrate)
G01 X385.200174 Y-1834.931110 Z-4.999990 F400.000000
G01 X383.410095 Y-1834.931110 Z-4.999990
G01 X383.031127 Y-1834.931110 Z-4.999990
G01 X378.797794 Y-1834.931110 Z-4.999990
G01 X376.883001 Y-1834.931110 Z-4.999990
G01 X376.392358 Y-1834.955578 Z-4.999990
G01 X372.164302 Y-1835.166624 Z-4.999990
G01 X370.266216 Y-1835.261366 Z-4.999990
G01 X369.445091 Y-1835.342900 Z-4.999990
G01 X359.615657 Y-1836.318909 Z-4.999990
G01 X357.389432 Y-1836.539974 Z-4.999990
G01 X356.927378 Y-1836.609062 Z-4.999990
G01 X352.740583 Y-1837.235087 Z-4.999990
G01 X350.884351 Y-1837.512653 Z-4.999990
G01 X350.112530 Y-1837.666915 Z-4.999990
G01 X340.426381 Y-1839.603157 Z-4.999990
G01 X338.270259 Y-1840.034167 Z-4.999990
G01 X337.832194 Y-1840.144347 Z-4.999990
G01 X333.726707 Y-1841.176885 Z-4.999990
G01 X331.921021 Y-1841.631037 Z-4.999990
G01 X331.188937 Y-1841.853597 Z-4.999990
G01 X321.738246 Y-1844.726704 Z-4.999990
G01 X319.655813 Y-1845.359785 Z-4.999990
G01 X319.237813 Y-1845.509504 Z-4.999990
G01 X315.252469 Y-1846.937125 Z-4.999990
G01 X313.506332 Y-1847.562643 Z-4.999990
G01 X312.805941 Y-1847.852739 Z-4.999990
G01 X303.680088 Y-1851.632823 Z-4.999990
G01 X301.675999 Y-1852.462952 Z-4.999990
G01 X301.274849 Y-1852.652520 Z-4.999990
G01 X297.447294 Y-1854.461113 Z-4.999990
G01 X295.770019 Y-1855.253650 Z-4.999990
G01 X295.094746 Y-1855.614076 Z-4.999990
G01 X286.380514 Y-1860.265183 Z-4.999990
G01 X284.460585 Y-1861.289903 Z-4.999990
G01 X284.073715 Y-1861.521297 Z-4.999990
G01 X280.440583 Y-1863.694211 Z-4.999990
G01 X278.841879 Y-1864.650352 Z-4.999990
G01 X278.186531 Y-1865.087344 Z-4.999990
G01 X269.968304 Y-1870.567394 Z-4.999990
G01 X268.139391 Y-1871.786933 Z-4.999990
G01 X267.764967 Y-1872.063934 Z-4.999990
G01 X264.361819 Y-1874.581808 Z-4.999990
G01 X262.851845 Y-1875.698956 Z-4.999990
G01 X262.212866 Y-1876.222479 Z-4.999990
G01 X254.572263 Y-1882.482817 Z-4.999990
G01 X252.842495 Y-1883.900137 Z-4.999990
G01 X252.479670 Y-1884.228446 Z-4.999990
G01 X249.340738 Y-1887.068928 Z-4.999990
G01 X247.930192 Y-1888.345363 Z-4.999990
G01 X247.574027 Y-1888.701527 Z-4.999990
G01 X244.580609 Y-1891.694945 Z-4.999990
G01 X243.314842 Y-1892.960712 Z-4.999990
G01 X243.046872 Y-1893.228682 Z-4.999990
G01 X240.053454 Y-1896.222100 Z-4.999990
G01 X238.699493 Y-1897.576061 Z-4.999990
G01 X238.369857 Y-1897.940325 Z-4.999990
G01 X235.529404 Y-1901.079258 Z-4.999990
G01 X234.254239 Y-1902.488393 Z-4.999990
G01 X233.731281 Y-1903.126667 Z-4.999990
G01 X227.470943 Y-1910.767269 Z-4.999990
G01 X226.053087 Y-1912.497771 Z-4.999990
G01 X225.775183 Y-1912.873352 Z-4.999990
G01 X223.257365 Y-1916.276529 Z-4.999990
G01 X222.141064 Y-1917.785346 Z-4.999990
G01 X221.704381 Y-1918.440242 Z-4.999990
G01 X216.224331 Y-1926.658497 Z-4.999990
G01 X215.004482 Y-1928.487890 Z-4.999990
G01 X214.772636 Y-1928.875550 Z-4.999990
G01 X212.599723 Y-1932.508681 Z-4.999990
G01 X211.644034 Y-1934.106624 Z-4.999990
G01 X211.283721 Y-1934.781699 Z-4.999990
G01 X206.632642 Y-1943.495931 Z-4.999990
G01 X205.607780 Y-1945.416115 Z-4.999990
G01 X205.418099 Y-1945.817576 Z-4.999990
G01 X203.609506 Y-1949.645130 Z-4.999990
G01 X202.817082 Y-1951.322151 Z-4.999990
G01 X202.526958 Y-1952.022542 Z-4.999990
G01 X198.746901 Y-1961.148423 Z-4.999990
G01 X197.916773 Y-1963.152540 Z-4.999990
G01 X197.767139 Y-1963.570229 Z-4.999990
G01 X196.339518 Y-1967.555602 Z-4.999990
G01 X195.713916 Y-1969.302049 Z-4.999990
G01 X195.491242 Y-1970.034416 Z-4.999990
G01 X192.618164 Y-1979.485135 Z-4.999990
G01 X191.985139 Y-1981.567342 Z-4.999990
G01 X191.875185 Y-1982.004533 Z-4.999990
G01 X190.842647 Y-1986.110020 Z-4.999990
G01 X190.388298 Y-1987.916580 Z-4.999990
G01 X190.233894 Y-1988.688994 Z-4.999990
G01 X188.297652 Y-1998.375143 Z-4.999990
G01 X187.866755 Y-2000.530729 Z-4.999990
G01 X187.797893 Y-2000.991372 Z-4.999990
G01 X187.171867 Y-2005.178167 Z-4.999990
G01 X186.894076 Y-2007.035838 Z-4.999990
G01 X186.812457 Y-2007.857867 Z-4.999990
G01 X185.836448 Y-2017.687300 Z-4.999990
G01 X185.615496 Y-2019.912650 Z-4.999990
G01 X185.591084 Y-2020.401374 Z-4.999990
G01 X185.380067 Y-2024.629430 Z-4.999990
G01 X185.285212 Y-2026.529435 Z-4.999990
G01 X185.285212 Y-2027.033117 Z-4.999990
G01 X185.285212 Y-2031.266450 Z-4.999990
G01 X185.285212 Y-2033.056529 Z-4.999990
G01 X185.285212 Y-2033.435497 Z-4.999990
G01 X185.285212 Y-2037.668831 Z-4.999990
G01 X185.285212 Y-2039.583596 Z-4.999990
G01 X185.309709 Y-2040.074267 Z-4.999990
G01 X185.520726 Y-2044.302323 Z-4.999990
G01 X185.615468 Y-2046.200409 Z-4.999990
G01 X185.697002 Y-2047.021534 Z-4.999990
G01 X186.672983 Y-2056.850996 Z-4.999990
G01 X186.894048 Y-2059.077221 Z-4.999990
G01 X186.963136 Y-2059.539275 Z-4.999990
G01 X187.589133 Y-2063.726070 Z-4.999990
G01 X187.866670 Y-2065.582302 Z-4.999990
G01 X188.020961 Y-2066.354152 Z-4.999990
G01 X189.957147 Y-2076.040301 Z-4.999990
G01 X190.388156 Y-2078.196450 Z-4.999990
G01 X190.498336 Y-2078.634515 Z-4.999990
G01 X191.530846 Y-2082.740002 Z-4.999990
G01 X191.984998 Y-2084.545688 Z-4.999990
G01 X192.207558 Y-2085.277801 Z-4.999990
G01 X195.080609 Y-2094.728520 Z-4.999990
G01 X195.713662 Y-2096.810981 Z-4.999990
G01 X195.863409 Y-2097.228981 Z-4.999990
G01 X197.291002 Y-2101.214325 Z-4.999990
G01 X197.916491 Y-2102.960491 Z-4.999990
G01 X198.206615 Y-2103.660882 Z-4.999990
G01 X201.986643 Y-2112.786763 Z-4.999990
G01 X202.816743 Y-2114.790851 Z-4.999990
G01 X203.006312 Y-2115.192030 Z-4.999990
G01 X204.814877 Y-2119.019584 Z-4.999990
G01 X205.607413 Y-2120.696859 Z-4.999990
G01 X205.967839 Y-2121.372161 Z-4.999990
G01 X210.618890 Y-2130.086421 Z-4.999990
G01 X211.643610 Y-2132.006350 Z-4.999990
G01 X211.875004 Y-2132.393249 Z-4.999990
G01 X214.047890 Y-2136.026380 Z-4.999990
G01 X215.004030 Y-2137.625084 Z-4.999990
G01 X215.441023 Y-2138.280433 Z-4.999990
G01 X220.921017 Y-2146.498716 Z-4.999990
G01 X222.140556 Y-2148.327628 Z-4.999990
G01 X222.417557 Y-2148.702053 Z-4.999990
G01 X224.935402 Y-2152.105229 Z-4.999990
G01 X226.052551 Y-2153.615203 Z-4.999990
G01 X226.576101 Y-2154.254182 Z-4.999990
G01 X232.836411 Y-2161.894785 Z-4.999990
G01 X234.253703 Y-2163.624581 Z-4.999990
G01 X234.582040 Y-2163.987406 Z-4.999990
G01 X237.422494 Y-2167.126338 Z-4.999990
G01 X238.698957 Y-2168.536913 Z-4.999990
G01 X239.055093 Y-2168.893077 Z-4.999990
G01 X242.048511 Y-2171.886496 Z-4.999990
G01 X243.314278 Y-2173.152262 Z-4.999990
G01 X243.582248 Y-2173.420232 Z-4.999990
G01 X246.575666 Y-2176.413650 Z-4.999990
G01 X247.929627 Y-2177.767612 Z-4.999990
G01 X248.293891 Y-2178.097219 Z-4.999990
G01 X251.432823 Y-2180.937701 Z-4.999990
G01 X252.841959 Y-2182.212866 Z-4.999990
G01 X253.480233 Y-2182.735823 Z-4.999990
G01 X261.120835 Y-2188.996161 Z-4.999990
G01 X262.851337 Y-2190.414018 Z-4.999990
G01 X263.226918 Y-2190.691922 Z-4.999990
G01 X266.630095 Y-2193.209767 Z-4.999990
G01 X268.138912 Y-2194.326041 Z-4.999990
G01 X268.793808 Y-2194.762752 Z-4.999990
G01 X277.012063 Y-2200.242773 Z-4.999990
G01 X278.841456 Y-2201.462623 Z-4.999990
G01 X279.229116 Y-2201.694496 Z-4.999990
G01 X282.862247 Y-2203.867382 Z-4.999990
G01 X284.460190 Y-2204.823099 Z-4.999990
G01 X285.135265 Y-2205.183384 Z-4.999990
G01 X293.849497 Y-2209.834463 Z-4.999990
G01 X295.769681 Y-2210.859353 Z-4.999990
G01 X296.171142 Y-2211.049034 Z-4.999990
G01 X299.998668 Y-2212.857627 Z-4.999990
G01 X301.675689 Y-2213.650051 Z-4.999990
G01 X302.376108 Y-2213.940175 Z-4.999990
G01 X311.501989 Y-2217.720260 Z-4.999990
G01 X313.506078 Y-2218.550388 Z-4.999990
G01 X313.923795 Y-2218.700022 Z-4.999990
G01 X317.909139 Y-2220.127643 Z-4.999990
G01 X319.655587 Y-2220.753245 Z-4.999990
G01 X320.387982 Y-2220.975890 Z-4.999990
G01 X329.838673 Y-2223.848997 Z-4.999990
G01 X331.920880 Y-2224.482022 Z-4.999990
G01 X332.358071 Y-2224.591976 Z-4.999990
G01 X336.463557 Y-2225.624514 Z-4.999990
G01 X338.270146 Y-2226.078863 Z-4.999990
G01 X339.042560 Y-2226.233267 Z-4.999990
G01 X348.728709 Y-2228.169509 Z-4.999990
G01 X350.884294 Y-2228.600406 Z-4.999990
G01 X351.344938 Y-2228.669297 Z-4.999990
G01 X355.531733 Y-2229.295322 Z-4.999990
G01 X357.389404 Y-2229.573085 Z-4.999990
G01 X358.211404 Y-2229.654704 Z-4.999990
G01 X368.040866 Y-2230.630713 Z-4.999990
G01 X370.266188 Y-2230.851693 Z-4.999990
G01 X370.754912 Y-2230.876077 Z-4.999990
G01 X374.982996 Y-2231.087123 Z-4.999990
G01 X376.883001 Y-2231.181949 Z-4.999990
G01 X377.386683 Y-2231.181949 Z-4.999990
G01 X381.620016 Y-2231.181949 Z-4.999990
G01 X383.410095 Y-2231.181949 Z-4.999990
G01 X383.789063 Y-2231.181949 Z-4.999990
G01 X388.022397 Y-2231.181949 Z-4.999990
G01 X389.937190 Y-2231.181949 Z-4.999990
G01 X390.427833 Y-2231.157481 Z-4.999990
G01 X394.655917 Y-2230.946435 Z-4.999990
G01 X396.553975 Y-2230.851693 Z-4.999990
G01 X397.375128 Y-2230.770159 Z-4.999990
G01 X407.204561 Y-2229.794150 Z-4.999990
G01 X409.430787 Y-2229.573085 Z-4.999990
G01 X409.892869 Y-2229.503997 Z-4.999990
G01 X414.079664 Y-2228.877972 Z-4.999990
G01 X415.935896 Y-2228.600406 Z-4.999990
G01 X416.707746 Y-2228.446115 Z-4.999990
G01 X426.393895 Y-2226.509873 Z-4.999990
G01 X428.550044 Y-2226.078863 Z-4.999990
G01 X428.988110 Y-2225.968684 Z-4.999990
G01 X433.093596 Y-2224.936146 Z-4.999990
G01 X434.899282 Y-2224.482022 Z-4.999990
G01 X435.631395 Y-2224.259433 Z-4.999990
G01 X445.082114 Y-2221.386326 Z-4.999990
G01 X447.164575 Y-2220.753245 Z-4.999990
G01 X447.582575 Y-2220.603498 Z-4.999990
G01 X451.567948 Y-2219.175877 Z-4.999990
G01 X453.314113 Y-2218.550388 Z-4.999990
G01 X454.014504 Y-2218.260264 Z-4.999990
G01 X463.140385 Y-2214.480179 Z-4.999990
G01 X465.144474 Y-2213.650051 Z-4.999990
G01 X465.545652 Y-2213.460510 Z-4.999990
G01 X469.373207 Y-2211.651917 Z-4.999990
G01 X471.050510 Y-2210.859353 Z-4.999990
G01 X471.725811 Y-2210.498927 Z-4.999990
G01 X480.440043 Y-2205.847820 Z-4.999990
G01 X482.360001 Y-2204.823099 Z-4.999990
G01 X482.746899 Y-2204.591677 Z-4.999990
G01 X486.380031 Y-2202.418791 Z-4.999990
G01 X487.978735 Y-2201.462623 Z-4.999990
G01 X488.634112 Y-2201.025630 Z-4.999990
G01 X496.852366 Y-2195.545608 Z-4.999990
G01 X498.681279 Y-2194.326041 Z-4.999990
G01 X499.055703 Y-2194.049040 Z-4.999990
G01 X502.458880 Y-2191.531194 Z-4.999990
G01 X503.968854 Y-2190.414018 Z-4.999990
G01 X504.607833 Y-2189.890495 Z-4.999990
G01 X512.248435 Y-2183.630157 Z-4.999990
G01 X513.978232 Y-2182.212866 Z-4.999990
G01 X514.341057 Y-2181.884528 Z-4.999990
G01 X517.479989 Y-2179.044046 Z-4.999990
G01 X518.890563 Y-2177.767612 Z-4.999990
G01 X519.246728 Y-2177.411447 Z-4.999990
G01 X522.240146 Y-2174.418029 Z-4.999990
G01 X523.505913 Y-2173.152262 Z-4.999990
G01 X523.773883 Y-2172.884292 Z-4.999990
G01 X526.767301 Y-2169.890874 Z-4.999990
G01 X528.121262 Y-2168.536913 Z-4.999990
G01 X528.450870 Y-2168.172649 Z-4.999990
G01 X531.291352 Y-2165.033717 Z-4.999990
G01 X532.566516 Y-2163.624581 Z-4.999990
G01 X533.089474 Y-2162.986307 Z-4.999990
G01 X539.349812 Y-2155.345705 Z-4.999990
G01 X540.767668 Y-2153.615231 Z-4.999990
G01 X541.045544 Y-2153.239622 Z-4.999990
G01 X543.563390 Y-2149.836445 Z-4.999990
G01 X544.679692 Y-2148.327657 Z-4.999990
G01 X545.116374 Y-2147.672760 Z-4.999990
G01 X550.596424 Y-2139.454505 Z-4.999990
G01 X551.816273 Y-2137.625113 Z-4.999990
G01 X552.048119 Y-2137.237452 Z-4.999990
G01 X554.221032 Y-2133.604321 Z-4.999990
G01 X555.176721 Y-2132.006379 Z-4.999990
G01 X555.537035 Y-2131.331303 Z-4.999990
G01 X560.188113 Y-2122.617071 Z-4.999990
G01 X561.212975 Y-2120.696887 Z-4.999990
G01 X561.402657 Y-2120.295455 Z-4.999990
G01 X563.211249 Y-2116.467900 Z-4.999990
G01 X564.003673 Y-2114.790879 Z-4.999990
G01 X564.293798 Y-2114.090489 Z-4.999990
G01 X568.073882 Y-2104.964607 Z-4.999990
G01 X568.904010 Y-2102.960519 Z-4.999990
G01 X569.053616 Y-2102.542802 Z-4.999990
G01 X570.481238 Y-2098.557457 Z-4.999990
G01 X571.106868 Y-2096.811010 Z-4.999990
G01 X571.329513 Y-2096.078615 Z-4.999990
G01 X574.202592 Y-2086.627924 Z-4.999990
G01 X574.835616 Y-2084.545716 Z-4.999990
G01 X574.945570 Y-2084.108526 Z-4.999990
G01 X575.978108 Y-2080.003039 Z-4.999990
G01 X576.432486 Y-2078.196478 Z-4.999990
G01 X576.586861 Y-2077.424064 Z-4.999990
G01 X578.523103 Y-2067.737915 Z-4.999990
G01 X578.954000 Y-2065.582330 Z-4.999990
G01 X579.022862 Y-2065.121687 Z-4.999990
G01 X579.648888 Y-2060.934892 Z-4.999990
G01 X579.926679 Y-2059.077221 Z-4.999990
G01 X580.008298 Y-2058.255192 Z-4.999990
G01 X580.984307 Y-2048.425759 Z-4.999990
G01 X581.205259 Y-2046.200409 Z-4.999990
G01 X581.229643 Y-2045.711684 Z-4.999990
G01 X581.440688 Y-2041.483629 Z-4.999990
G01 X581.535515 Y-2039.583624 Z-4.999990
G01 X581.535515 Y-2039.079942 Z-4.999990
G01 X581.535515 Y-2034.846609 Z-4.999990
G01 X581.535515 Y-2033.056529 Z-4.999990
G01 X581.535515 Y-2032.677561 Z-4.999990
G01 X581.535515 Y-2028.444228 Z-4.999990
G01 X581.535515 Y-2026.529435 Z-4.999990
G01 X581.511046 Y-2026.038792 Z-4.999990
G01 X581.300001 Y-2021.810708 Z-4.999990
G01 X581.205259 Y-2019.912650 Z-4.999990
G01 X581.123725 Y-2019.091496 Z-4.999990
G01 X580.147716 Y-2009.262063 Z-4.999990
G01 X579.926651 Y-2007.035838 Z-4.999990
G01 X579.857563 Y-2006.573755 Z-4.999990
G01 X579.231538 Y-2002.386961 Z-4.999990
G01 X578.953972 Y-2000.530729 Z-4.999990
G01 X578.799681 Y-1999.758879 Z-4.999990
G01 X576.863467 Y-1990.072730 Z-4.999990
G01 X576.432458 Y-1987.916580 Z-4.999990
G01 X576.322278 Y-1987.478515 Z-4.999990
G01 X575.289740 Y-1983.373028 Z-4.999990
G01 X574.835588 Y-1981.567342 Z-4.999990
G01 X574.613027 Y-1980.835230 Z-4.999990
G01 X571.739920 Y-1971.384511 Z-4.999990
G01 X571.106840 Y-1969.302049 Z-4.999990
G01 X570.957092 Y-1968.884050 Z-4.999990
G01 X569.529471 Y-1964.898705 Z-4.999990
G01 X568.903982 Y-1963.152540 Z-4.999990
G01 X568.613858 Y-1962.452121 Z-4.999990
G01 X564.833802 Y-1953.326239 Z-4.999990
G01 X564.003673 Y-1951.322151 Z-4.999990
G01 X563.814104 Y-1950.920972 Z-4.999990
G01 X562.005511 Y-1947.093418 Z-4.999990
G01 X561.212947 Y-1945.416115 Z-4.999990
G01 X560.852521 Y-1944.740814 Z-4.999990
G01 X556.201442 Y-1936.026581 Z-4.999990
G01 X555.176693 Y-1934.106624 Z-4.999990
G01 X554.945299 Y-1933.719725 Z-4.999990
G01 X552.772414 Y-1930.086594 Z-4.999990
G01 X551.816245 Y-1928.487890 Z-4.999990
G01 X551.379252 Y-1927.832541 Z-4.999990
G01 X549.030683 Y-1924.310408 Z-4.999990
G01 X545.899230 Y-1919.614259 Z-4.999990
G01 X544.679692 Y-1917.785346 Z-4.999990
G01 X544.402662 Y-1917.410921 Z-4.999990
G01 X541.884817 Y-1914.007745 Z-4.999990
G01 X540.767668 Y-1912.497771 Z-4.999990
G01 X540.244118 Y-1911.858792 Z-4.999990
G01 X533.983808 Y-1904.218190 Z-4.999990
G01 X532.566488 Y-1902.488393 Z-4.999990
G01 X532.238179 Y-1902.125568 Z-4.999990
G01 X529.397697 Y-1898.986636 Z-4.999990
G01 X528.121262 Y-1897.576061 Z-4.999990
G01 X527.765098 Y-1897.219925 Z-4.999990
G01 X524.771679 Y-1894.226479 Z-4.999990
G01 X523.505913 Y-1892.960712 Z-4.999990
G01 X523.237943 Y-1892.692742 Z-4.999990
G01 X520.244525 Y-1889.699324 Z-4.999990
G01 X518.890563 Y-1888.345363 Z-4.999990
G01 X518.526299 Y-1888.015755 Z-4.999990
G01 X515.387367 Y-1885.175273 Z-4.999990
G01 X513.978232 Y-1883.900109 Z-4.999990
G01 X513.339958 Y-1883.377151 Z-4.999990
G01 X505.699356 Y-1877.116813 Z-4.999990
G01 X503.968854 Y-1875.698956 Z-4.999990
G01 X503.593272 Y-1875.421052 Z-4.999990
G01 X500.190096 Y-1872.903235 Z-4.999990
G01 X498.681279 Y-1871.786933 Z-4.999990
G01 X498.026382 Y-1871.350251 Z-4.999990
G01 X489.808128 Y-1865.870229 Z-4.999990
G01 X487.978735 Y-1864.650352 Z-4.999990
G01 X487.591046 Y-1864.418506 Z-4.999990
G01 X483.957915 Y-1862.245592 Z-4.999990
G01 X482.359973 Y-1861.289903 Z-4.999990
G01 X481.684925 Y-1860.929618 Z-4.999990
G01 X472.970693 Y-1856.278540 Z-4.999990
G01 X471.050482 Y-1855.253650 Z-4.999990
G01 X470.649049 Y-1855.063968 Z-4.999990
G01 X466.821494 Y-1853.255375 Z-4.999990
G01 X465.144474 Y-1852.462952 Z-4.999990
G01 X464.444054 Y-1852.172827 Z-4.999990
G01 X455.318173 Y-1848.392771 Z-4.999990
G01 X453.314085 Y-1847.562643 Z-4.999990
G01 X452.896368 Y-1847.413008 Z-4.999990
G01 X448.911023 Y-1845.985387 Z-4.999990
G01 X447.164575 Y-1845.359785 Z-4.999990
G01 X446.432209 Y-1845.137140 Z-4.999990
G01 X436.981490 Y-1842.264033 Z-4.999990
G01 X434.899282 Y-1841.631037 Z-4.999990
G01 X434.462092 Y-1841.521083 Z-4.999990
G01 X430.356605 Y-1840.488517 Z-4.999990
G01 X428.550016 Y-1840.034167 Z-4.999990
G01 X427.777602 Y-1839.879763 Z-4.999990
G01 X418.091453 Y-1837.943521 Z-4.999990
G01 X415.935868 Y-1837.512653 Z-4.999990
G01 X415.475225 Y-1837.443762 Z-4.999990
G01 X411.288458 Y-1836.817737 Z-4.999990
G01 X409.430787 Y-1836.539974 Z-4.999990
G01 X408.608758 Y-1836.458355 Z-4.999990
G01 X398.779325 Y-1835.482346 Z-4.999990
G01 X396.553975 Y-1835.261366 Z-4.999990
G01 X396.065250 Y-1835.236982 Z-4.999990
G01 X391.837195 Y-1835.025936 Z-4.999990
G01 X389.937162 Y-1834.931110 Z-4.999990
G01 X389.433508 Y-1834.931110 Z-4.999990
G00 Z5.000000

G00 Z5.000000
G00 X377.475639 Y-1850.305984

G01 Z-4.999990 F100.0(Penetrate)
G01 X381.708973 Y-1850.305984 Z-4.999990 F400.000000
G01 X383.410095 Y-1850.305984 Z-4.999990
G01 X383.700107 Y-1850.305984 Z-4.999990
G01 X387.933440 Y-1850.305984 Z-4.999990
G01 X389.509849 Y-1850.305984 Z-4.999990
G01 X389.662870 Y-1850.313632 Z-4.999990
G01 X393.890954 Y-1850.524649 Z-4.999990
G01 X395.455255 Y-1850.602712 Z-4.999990
G01 X395.856406 Y-1850.642562 Z-4.999990
G01 X405.685839 Y-1851.618486 Z-4.999990
G01 X407.490311 Y-1851.797641 Z-4.999990
G01 X407.620670 Y-1851.817143 Z-4.999990
G01 X411.807465 Y-1852.443111 Z-4.999990
G01 X413.334852 Y-1852.671486 Z-4.999990
G01 X413.694882 Y-1852.743452 Z-4.999990
G01 X423.381031 Y-1854.679581 Z-4.999990
G01 X425.124233 Y-1855.028013 Z-4.999990
G01 X425.239126 Y-1855.056913 Z-4.999990
G01 X429.344613 Y-1856.089423 Z-4.999990
G01 X430.828848 Y-1856.462718 Z-4.999990
G01 X431.160289 Y-1856.563443 Z-4.999990
G01 X440.611009 Y-1859.436493 Z-4.999990
G01 X442.292263 Y-1859.947598 Z-4.999990
G01 X442.397870 Y-1859.985416 Z-4.999990
G01 X446.383243 Y-1861.413009 Z-4.999990
G01 X447.817581 Y-1861.926822 Z-4.999990
G01 X448.131271 Y-1862.056758 Z-4.999990
G01 X457.257181 Y-1865.836814 Z-4.999990
G01 X458.874568 Y-1866.506753 Z-4.999990
G01 X458.976281 Y-1866.554815 Z-4.999990
G01 X462.803807 Y-1868.363408 Z-4.999990
G01 X464.181080 Y-1869.014184 Z-4.999990
G01 X464.486444 Y-1869.177168 Z-4.999990
G01 X473.200676 Y-1873.828275 Z-4.999990
G01 X474.751149 Y-1874.655835 Z-4.999990
G01 X474.853595 Y-1874.717105 Z-4.999990
G01 X478.486699 Y-1876.890019 Z-4.999990
G01 X479.799399 Y-1877.675105 Z-4.999990
G01 X480.104368 Y-1877.878474 Z-4.999990
G01 X488.322595 Y-1883.358552 Z-4.999990
G01 X489.802088 Y-1884.345117 Z-4.999990
G01 X489.909220 Y-1884.424365 Z-4.999990
G01 X493.312368 Y-1886.942238 Z-4.999990
G01 X494.552707 Y-1887.859912 Z-4.999990
G01 X494.863828 Y-1888.114843 Z-4.999990
G01 X502.504402 Y-1894.375210 Z-4.999990
G01 X503.907724 Y-1895.525039 Z-4.999990
G01 X504.022758 Y-1895.629123 Z-4.999990
G01 X507.161662 Y-1898.469605 Z-4.999990
G01 X508.321567 Y-1899.519246 Z-4.999990
G01 X508.438463 Y-1899.636114 Z-4.999990
G01 X511.431882 Y-1902.629532 Z-4.999990
G01 X512.634741 Y-1903.832420 Z-4.999990
G01 X512.839804 Y-1904.037483 Z-4.999990
G01 X515.833222 Y-1907.030901 Z-4.999990
G01 X516.947943 Y-1908.145594 Z-4.999990
G01 X517.050729 Y-1908.259188 Z-4.999990
G01 X519.891211 Y-1911.398092 Z-4.999990
G01 X520.942150 Y-1912.559437 Z-4.999990
G01 X521.197617 Y-1912.871236 Z-4.999990
G01 X527.458012 Y-1920.511810 Z-4.999990
G01 X528.607249 Y-1921.914426 Z-4.999990
G01 X528.685650 Y-1922.020372 Z-4.999990
G01 X531.203524 Y-1925.423521 Z-4.999990
G01 X532.122073 Y-1926.665045 Z-4.999990
G01 X532.325752 Y-1926.970465 Z-4.999990
G01 X537.805831 Y-1935.188664 Z-4.999990
G01 X538.792056 Y-1936.667649 Z-4.999990
G01 X538.852875 Y-1936.769306 Z-4.999990
G01 X541.025789 Y-1940.402437 Z-4.999990
G01 X541.811354 Y-1941.715871 Z-4.999990
G01 X541.974450 Y-1942.021461 Z-4.999990
G01 X546.625586 Y-1950.735665 Z-4.999990
G01 X547.452977 Y-1952.285884 Z-4.999990
G01 X547.500898 Y-1952.387286 Z-4.999990
G01 X549.309519 Y-1956.214840 Z-4.999990
G01 X549.960436 Y-1957.592367 Z-4.999990
G01 X550.090343 Y-1957.906029 Z-4.999990
G01 X553.870428 Y-1967.031910 Z-4.999990
G01 X554.540367 Y-1968.649297 Z-4.999990
G01 X554.578269 Y-1968.755159 Z-4.999990
G01 X556.005890 Y-1972.740532 Z-4.999990
G01 X556.519591 Y-1974.174559 Z-4.999990
G01 X556.620260 Y-1974.505691 Z-4.999990
G01 X559.493282 Y-1983.956410 Z-4.999990
G01 X560.004471 Y-1985.637918 Z-4.999990
G01 X560.033568 Y-1985.753658 Z-4.999990
G01 X561.066078 Y-1989.859144 Z-4.999990
G01 X561.439148 Y-1991.342504 Z-4.999990
G01 X561.511002 Y-1991.701942 Z-4.999990
G01 X563.447131 Y-2001.388091 Z-4.999990
G01 X563.795675 Y-2003.131830 Z-4.999990
G01 X563.815374 Y-2003.263627 Z-4.999990
G01 X564.441372 Y-2007.450422 Z-4.999990
G01 X564.669520 Y-2008.976370 Z-4.999990
G01 X564.709257 Y-2009.376589 Z-4.999990
G01 X565.685181 Y-2019.206050 Z-4.999990
G01 X565.864449 Y-2021.011398 Z-4.999990
G01 X565.872182 Y-2021.166338 Z-4.999990
G01 X566.083199 Y-2025.394394 Z-4.999990
G01 X566.161177 Y-2026.956776 Z-4.999990
G01 X566.161177 Y-2027.122073 Z-4.999990
G01 X566.161177 Y-2031.355407 Z-4.999990
G01 X566.161177 Y-2033.056529 Z-4.999990
G01 X566.161177 Y-2033.346541 Z-4.999990
G01 X566.161177 Y-2037.579874 Z-4.999990
G01 X566.161177 Y-2039.156311 Z-4.999990
G01 X566.153529 Y-2039.309332 Z-4.999990
G01 X565.942512 Y-2043.537416 Z-4.999990
G01 X565.864449 Y-2045.101717 Z-4.999990
G01 X565.824627 Y-2045.502868 Z-4.999990
G01 X564.848703 Y-2055.332301 Z-4.999990
G01 X564.669520 Y-2057.136774 Z-4.999990
G01 X564.650047 Y-2057.267132 Z-4.999990
G01 X564.024050 Y-2061.453927 Z-4.999990
G01 X563.795675 Y-2062.981314 Z-4.999990
G01 X563.723737 Y-2063.341316 Z-4.999990
G01 X561.787608 Y-2073.027465 Z-4.999990
G01 X561.439148 Y-2074.770639 Z-4.999990
G01 X561.410277 Y-2074.885504 Z-4.999990
G01 X560.377767 Y-2078.990990 Z-4.999990
G01 X560.004471 Y-2080.475225 Z-4.999990
G01 X559.903746 Y-2080.806639 Z-4.999990
G01 X557.030696 Y-2090.257358 Z-4.999990
G01 X556.519591 Y-2091.938584 Z-4.999990
G01 X556.481773 Y-2092.044192 Z-4.999990
G01 X555.054152 Y-2096.029536 Z-4.999990
G01 X554.540367 Y-2097.463874 Z-4.999990
G01 X554.410432 Y-2097.777536 Z-4.999990
G01 X550.630375 Y-2106.903417 Z-4.999990
G01 X549.960436 Y-2108.520805 Z-4.999990
G01 X549.912374 Y-2108.622489 Z-4.999990
G01 X548.103781 Y-2112.450015 Z-4.999990
G01 X547.453005 Y-2113.827288 Z-4.999990
G01 X547.290021 Y-2114.132596 Z-4.999990
G01 X542.638886 Y-2122.846828 Z-4.999990
G01 X541.811354 Y-2124.397272 Z-4.999990
G01 X541.750112 Y-2124.499691 Z-4.999990
G01 X539.577170 Y-2128.132822 Z-4.999990
G01 X538.792084 Y-2129.445494 Z-4.999990
G01 X538.588715 Y-2129.750464 Z-4.999990
G01 X533.108609 Y-2137.968662 Z-4.999990
G01 X532.122073 Y-2139.448127 Z-4.999990
G01 X532.042825 Y-2139.555259 Z-4.999990
G01 X529.524951 Y-2142.958407 Z-4.999990
G01 X528.607249 Y-2144.198746 Z-4.999990
G01 X528.352346 Y-2144.509867 Z-4.999990
G01 X522.091951 Y-2152.150441 Z-4.999990
G01 X520.942150 Y-2153.553735 Z-4.999990
G01 X520.838038 Y-2153.668769 Z-4.999990
G01 X517.997556 Y-2156.807701 Z-4.999990
G01 X516.947915 Y-2157.967606 Z-4.999990
G01 X516.831019 Y-2158.084502 Z-4.999990
G01 X513.837629 Y-2161.077921 Z-4.999990
G01 X512.634741 Y-2162.280780 Z-4.999990
G01 X512.429707 Y-2162.485843 Z-4.999990
G01 X509.436260 Y-2165.479233 Z-4.999990
G01 X508.321567 Y-2166.593926 Z-4.999990
G01 X508.207973 Y-2166.696711 Z-4.999990
G01 X505.069069 Y-2169.537193 Z-4.999990
G01 X503.907724 Y-2170.588104 Z-4.999990
G01 X503.595925 Y-2170.843600 Z-4.999990
G01 X495.955351 Y-2177.103938 Z-4.999990
G01 X494.552735 Y-2178.253203 Z-4.999990
G01 X494.446760 Y-2178.331576 Z-4.999990
G01 X491.043612 Y-2180.849450 Z-4.999990
G01 X489.802088 Y-2181.767999 Z-4.999990
G01 X489.496639 Y-2181.971678 Z-4.999990
G01 X481.278413 Y-2187.451729 Z-4.999990
G01 X479.799427 Y-2188.437954 Z-4.999990
G01 X479.697742 Y-2188.498773 Z-4.999990
G01 X476.064639 Y-2190.671658 Z-4.999990
G01 X474.751149 Y-2191.457224 Z-4.999990
G01 X474.445559 Y-2191.620348 Z-4.999990
G01 X465.731355 Y-2196.271427 Z-4.999990
G01 X464.181108 Y-2197.098846 Z-4.999990
G01 X464.079677 Y-2197.146767 Z-4.999990
G01 X460.252123 Y-2198.955360 Z-4.999990
G01 X458.874596 Y-2199.606278 Z-4.999990
G01 X458.560878 Y-2199.736241 Z-4.999990
G01 X449.434997 Y-2203.516269 Z-4.999990
G01 X447.817581 Y-2204.186208 Z-4.999990
G01 X447.711691 Y-2204.224139 Z-4.999990
G01 X443.726347 Y-2205.651760 Z-4.999990
G01 X442.292291 Y-2206.165433 Z-4.999990
G01 X441.961131 Y-2206.266130 Z-4.999990
G01 X432.510384 Y-2209.139152 Z-4.999990
G01 X430.828876 Y-2209.650313 Z-4.999990
G01 X430.713108 Y-2209.679438 Z-4.999990
G01 X426.607622 Y-2210.711948 Z-4.999990
G01 X425.124233 Y-2211.085018 Z-4.999990
G01 X424.764795 Y-2211.156843 Z-4.999990
G01 X415.078618 Y-2213.093000 Z-4.999990
G01 X413.334880 Y-2213.441545 Z-4.999990
G01 X413.203082 Y-2213.461244 Z-4.999990
G01 X409.016287 Y-2214.087241 Z-4.999990
G01 X407.490311 Y-2214.315390 Z-4.999990
G01 X407.090064 Y-2214.355126 Z-4.999990
G01 X397.260603 Y-2215.331051 Z-4.999990
G01 X395.455255 Y-2215.510318 Z-4.999990
G01 X395.300315 Y-2215.518051 Z-4.999990
G01 X391.072231 Y-2215.729069 Z-4.999990
G01 X389.509849 Y-2215.807047 Z-4.999990
G01 X389.344551 Y-2215.807047 Z-4.999990
G01 X385.111218 Y-2215.807047 Z-4.999990
G01 X383.410095 Y-2215.807047 Z-4.999990
G01 X383.120084 Y-2215.807047 Z-4.999990
G01 X378.886750 Y-2215.807047 Z-4.999990
G01 X377.310342 Y-2215.807047 Z-4.999990
G01 X377.157321 Y-2215.799399 Z-4.999990
G01 X372.929237 Y-2215.588381 Z-4.999990
G01 X371.364935 Y-2215.510318 Z-4.999990
G01 X370.963813 Y-2215.470469 Z-4.999990
G01 X361.134352 Y-2214.494544 Z-4.999990
G01 X359.329907 Y-2214.315390 Z-4.999990
G01 X359.199577 Y-2214.295888 Z-4.999990
G01 X355.012782 Y-2213.669919 Z-4.999990
G01 X353.485367 Y-2213.441545 Z-4.999990
G01 X353.125393 Y-2213.369578 Z-4.999990
G01 X343.439216 Y-2211.433449 Z-4.999990
G01 X341.696070 Y-2211.085018 Z-4.999990
G01 X341.581206 Y-2211.056118 Z-4.999990
G01 X337.475691 Y-2210.023608 Z-4.999990
G01 X335.991456 Y-2209.650341 Z-4.999990
G01 X335.660071 Y-2209.549588 Z-4.999990
G01 X326.209351 Y-2206.676537 Z-4.999990
G01 X324.528125 Y-2206.165461 Z-4.999990
G01 X324.422518 Y-2206.127615 Z-4.999990
G01 X320.437173 Y-2204.700022 Z-4.999990
G01 X319.002835 Y-2204.186208 Z-4.999990
G01 X318.689173 Y-2204.056301 Z-4.999990
G01 X309.563292 Y-2200.276245 Z-4.999990
G01 X307.945933 Y-2199.606306 Z-4.999990
G01 X307.844220 Y-2199.558243 Z-4.999990
G01 X304.016694 Y-2197.749651 Z-4.999990
G01 X302.639421 Y-2197.098874 Z-4.999990
G01 X302.334113 Y-2196.935891 Z-4.999990
G01 X293.619881 Y-2192.284784 Z-4.999990
G01 X292.069437 Y-2191.457252 Z-4.999990
G01 X291.967019 Y-2191.395982 Z-4.999990
G01 X288.333915 Y-2189.223068 Z-4.999990
G01 X287.021215 Y-2188.437954 Z-4.999990
G01 X286.716274 Y-2188.234613 Z-4.999990
G01 X278.498048 Y-2182.754535 Z-4.999990
G01 X277.018582 Y-2181.767999 Z-4.999990
G01 X276.911479 Y-2181.688751 Z-4.999990
G01 X273.508330 Y-2179.170877 Z-4.999990
G01 X272.267992 Y-2178.253203 Z-4.999990
G01 X271.956870 Y-2177.998300 Z-4.999990
G01 X264.316296 Y-2171.737934 Z-4.999990
G01 X262.913003 Y-2170.588104 Z-4.999990
G01 X262.797969 Y-2170.484020 Z-4.999990
G01 X259.659065 Y-2167.643538 Z-4.999990
G01 X258.499160 Y-2166.593926 Z-4.999990
G01 X258.382264 Y-2166.477057 Z-4.999990
G01 X255.388845 Y-2163.483639 Z-4.999990
G01 X254.185986 Y-2162.280780 Z-4.999990
G01 X253.980923 Y-2162.075717 Z-4.999990
G01 X250.987505 Y-2159.082299 Z-4.999990
G01 X249.872812 Y-2157.967606 Z-4.999990
G01 X249.769998 Y-2157.853983 Z-4.999990
G01 X246.929516 Y-2154.715079 Z-4.999990
G01 X245.878605 Y-2153.553735 Z-4.999990
G01 X245.623110 Y-2153.241936 Z-4.999990
G01 X239.362743 Y-2145.601390 Z-4.999990
G01 X238.213478 Y-2144.198746 Z-4.999990
G01 X238.135077 Y-2144.092799 Z-4.999990
G01 X235.617203 Y-2140.689651 Z-4.999990
G01 X234.698654 Y-2139.448127 Z-4.999990
G01 X234.495003 Y-2139.142706 Z-4.999990
G01 X229.014896 Y-2130.924480 Z-4.999990
G01 X228.028671 Y-2129.445494 Z-4.999990
G01 X227.967880 Y-2129.343866 Z-4.999990
G01 X225.794938 Y-2125.710735 Z-4.999990
G01 X225.009373 Y-2124.397272 Z-4.999990
G01 X224.846276 Y-2124.091710 Z-4.999990
G01 X220.195170 Y-2115.377507 Z-4.999990
G01 X219.367750 Y-2113.827288 Z-4.999990
G01 X219.319829 Y-2113.725886 Z-4.999990
G01 X217.511236 Y-2109.898331 Z-4.999990
G01 X216.860319 Y-2108.520805 Z-4.999990
G01 X216.730384 Y-2108.207115 Z-4.999990
G01 X212.950299 Y-2099.081233 Z-4.999990
G01 X212.280360 Y-2097.463874 Z-4.999990
G01 X212.242458 Y-2097.357984 Z-4.999990
G01 X210.814837 Y-2093.372640 Z-4.999990
G01 X210.301136 Y-2091.938584 Z-4.999990
G01 X210.200467 Y-2091.607453 Z-4.999990
G01 X207.327445 Y-2082.156733 Z-4.999990
G01 X206.816256 Y-2080.475225 Z-4.999990
G01 X206.787159 Y-2080.359486 Z-4.999990
G01 X205.754649 Y-2076.253999 Z-4.999990
G01 X205.381579 Y-2074.770639 Z-4.999990
G01 X205.309725 Y-2074.411201 Z-4.999990
G01 X203.373596 Y-2064.725052 Z-4.999990
G01 X203.025052 Y-2062.981314 Z-4.999990
G01 X203.005353 Y-2062.849516 Z-4.999990
G01 X202.379355 Y-2058.662721 Z-4.999990
G01 X202.151207 Y-2057.136774 Z-4.999990
G01 X202.111470 Y-2056.736526 Z-4.999990
G01 X201.135546 Y-2046.907065 Z-4.999990
G01 X200.956278 Y-2045.101717 Z-4.999990
G01 X200.948545 Y-2044.946749 Z-4.999990
G01 X200.737528 Y-2040.718693 Z-4.999990
G01 X200.659550 Y-2039.156311 Z-4.999990
G01 X200.659550 Y-2038.990985 Z-4.999990
G01 X200.659578 Y-2034.757652 Z-4.999990
G01 X200.659578 Y-2033.056529 Z-4.999990
G01 X200.659578 Y-2032.766518 Z-4.999990
G01 X200.659578 Y-2028.533184 Z-4.999990
G01 X200.659578 Y-2026.956776 Z-4.999990
G01 X200.667198 Y-2026.803755 Z-4.999990
G01 X200.878215 Y-2022.575699 Z-4.999990
G01 X200.956306 Y-2021.011398 Z-4.999990
G01 X200.996128 Y-2020.610247 Z-4.999990
G01 X201.972052 Y-2010.780814 Z-4.999990
G01 X202.151207 Y-2008.976370 Z-4.999990
G01 X202.170709 Y-2008.846011 Z-4.999990
G01 X202.796677 Y-2004.659216 Z-4.999990
G01 X203.025052 Y-2003.131830 Z-4.999990
G01 X203.097018 Y-2002.771827 Z-4.999990
G01 X205.033147 Y-1993.085678 Z-4.999990
G01 X205.381579 Y-1991.342504 Z-4.999990
G01 X205.410479 Y-1991.227640 Z-4.999990
G01 X206.442989 Y-1987.122153 Z-4.999990
G01 X206.816284 Y-1985.637918 Z-4.999990
G01 X206.917009 Y-1985.306533 Z-4.999990
G01 X209.790059 Y-1975.855814 Z-4.999990
G01 X210.301164 Y-1974.174559 Z-4.999990
G01 X210.338982 Y-1974.068980 Z-4.999990
G01 X211.766575 Y-1970.083607 Z-4.999990
G01 X212.280388 Y-1968.649297 Z-4.999990
G01 X212.410323 Y-1968.335607 Z-4.999990
G01 X216.190380 Y-1959.209726 Z-4.999990
G01 X216.860319 Y-1957.592367 Z-4.999990
G01 X216.908381 Y-1957.490682 Z-4.999990
G01 X218.716974 Y-1953.663128 Z-4.999990
G01 X219.367750 Y-1952.285884 Z-4.999990
G01 X219.530734 Y-1951.980547 Z-4.999990
G01 X224.181841 Y-1943.266344 Z-4.999990
G01 X225.009401 Y-1941.715871 Z-4.999990
G01 X225.070643 Y-1941.613453 Z-4.999990
G01 X227.243585 Y-1937.980349 Z-4.999990
G01 X228.028671 Y-1936.667649 Z-4.999990
G01 X228.232040 Y-1936.362708 Z-4.999990
G01 X233.712118 Y-1928.144482 Z-4.999990
G01 X234.698682 Y-1926.665045 Z-4.999990
G01 X234.777930 Y-1926.557913 Z-4.999990
G01 X237.295804 Y-1923.154765 Z-4.999990
G01 X238.213478 Y-1921.914426 Z-4.999990
G01 X238.468409 Y-1921.603304 Z-4.999990
G01 X244.728776 Y-1913.962758 Z-4.999990
G01 X245.878605 Y-1912.559437 Z-4.999990
G01 X245.982689 Y-1912.444403 Z-4.999990
G01 X248.823171 Y-1909.305499 Z-4.999990
G01 X249.872812 Y-1908.145594 Z-4.999990
G01 X249.989708 Y-1908.028698 Z-4.999990
G01 X252.983127 Y-1905.035279 Z-4.999990
G01 X254.185986 Y-1903.832420 Z-4.999990
G01 X254.391049 Y-1903.627357 Z-4.999990
G01 X257.384467 Y-1900.633939 Z-4.999990
G01 X258.499160 Y-1899.519246 Z-4.999990
G01 X258.612754 Y-1899.416432 Z-4.999990
G01 X261.751686 Y-1896.575950 Z-4.999990
G01 X262.913003 Y-1895.525039 Z-4.999990
G01 X263.224802 Y-1895.269544 Z-4.999990
G01 X270.865376 Y-1889.009177 Z-4.999990
G01 X272.267992 Y-1887.859912 Z-4.999990
G01 X272.373938 Y-1887.781511 Z-4.999990
G01 X275.777087 Y-1885.263637 Z-4.999990
G01 X277.018611 Y-1884.345088 Z-4.999990
G01 X277.324031 Y-1884.141437 Z-4.999990
G01 X285.542230 Y-1878.661330 Z-4.999990
G01 X287.021215 Y-1877.675105 Z-4.999990
G01 X287.122872 Y-1877.614314 Z-4.999990
G01 X290.755975 Y-1875.441400 Z-4.999990
G01 X292.069437 Y-1874.655835 Z-4.999990
G01 X292.375027 Y-1874.492739 Z-4.999990
G01 X301.089231 Y-1869.841604 Z-4.999990
G01 X302.639450 Y-1869.014184 Z-4.999990
G01 X302.740852 Y-1868.966263 Z-4.999990
G01 X306.568378 Y-1867.157670 Z-4.999990
G01 X307.945933 Y-1866.506753 Z-4.999990
G01 X308.259595 Y-1866.376818 Z-4.999990
G01 X317.385476 Y-1862.596762 Z-4.999990
G01 X319.002835 Y-1861.926822 Z-4.999990
G01 X319.108725 Y-1861.888892 Z-4.999990
G01 X323.094070 Y-1860.461271 Z-4.999990
G01 X324.528125 Y-1859.947598 Z-4.999990
G01 X324.859257 Y-1859.846929 Z-4.999990
G01 X334.309976 Y-1856.973879 Z-4.999990
G01 X335.991456 Y-1856.462690 Z-4.999990
G01 X336.107224 Y-1856.433593 Z-4.999990
G01 X340.212710 Y-1855.401083 Z-4.999990
G01 X341.696070 Y-1855.028013 Z-4.999990
G01 X342.055480 Y-1854.956187 Z-4.999990
G01 X351.741657 Y-1853.020030 Z-4.999990
G01 X353.485367 Y-1852.671486 Z-4.999990
G01 X353.617165 Y-1852.651787 Z-4.999990
G01 X357.803960 Y-1852.025789 Z-4.999990
G01 X359.329907 Y-1851.797641 Z-4.999990
G01 X359.730155 Y-1851.757904 Z-4.999990
G01 X369.559616 Y-1850.781980 Z-4.999990
G01 X371.364935 Y-1850.602712 Z-4.999990
G01 X371.519904 Y-1850.594979 Z-4.999990
G01 X375.747960 Y-1850.383962 Z-4.999990
G01 X377.310342 Y-1850.305984 Z-4.999990
G01 X377.475639 Y-1850.305984 Z-4.999990
G00 Z5.000000

G00 Z5.000000
G00 X216.728211 Y-1670.617295

G01 Z-0.612676 F100.0(Penetrate)
G01 X216.728211 Y-1670.617295 Z-0.612676 F400.000000
G01 X219.550433 Y-1667.795073 Z-3.434898
G01 X220.961544 Y-1666.383962 Z-4.846010
G01 X221.115524 Y-1664.972851 Z-4.999990
G01 X221.115524 Y-349.817287 Z-4.999990
G01 X221.115524 Y-348.560128 Z-4.999990
G01 X216.115506 Y-343.560138 Z0.000000
G01 X221.115524 Y-348.560128 Z-4.999990
G01 X216.239007 Y-343.683611 Z-0.123472
G01 X219.061229 Y-346.505833 Z-2.945694
G01 X220.472340 Y-347.916944 Z-4.356806
G01 X221.883451 Y-348.560128 Z-4.999990
G01 X631.105676 Y-348.560128 Z-4.999990
G01 X631.873602 Y-348.560128 Z-4.999990
G01 X636.873592 Y-343.560138 Z0.000000
G01 X631.873602 Y-348.560128 Z-4.999990
G01 X636.260916 Y-344.172815 Z-0.612676
G01 X633.438694 Y-346.995037 Z-3.434898
G01 X632.027583 Y-348.406148 Z-4.846010
G01 X631.873602 Y-349.817259 Z-4.999990
G01 X631.873602 Y-1664.972851 Z-4.999990
G01 X631.873602 Y-1666.229981 Z-4.999990
G01 X636.873592 Y-1671.229971 Z0.000000
G01 X631.873602 Y-1666.229981 Z-4.999990
G01 X636.750120 Y-1671.106499 Z-0.123472
G01 X633.927898 Y-1668.284277 Z-2.945694
G01 X632.516787 Y-1666.873166 Z-4.356806
G01 X631.105676 Y-1666.229981 Z-4.999990
G01 X221.883451 Y-1666.229981 Z-4.999990
G01 X220.472340 Y-1666.873166 Z-4.356806
G01 X217.650118 Y-1669.695388 Z-1.534583
G01 X221.115524 Y-1666.229981 Z-4.999990
G01 X216.115506 Y-1671.229971 Z0.000000
G01 X221.115524 Y-1666.229981 Z-4.999990
G01 X216.728211 Y-1670.617295 Z-0.612676
G00 Z5.000000

G00 Z5.000000
G00 X664.627467 Y-2338.091312

G01 Z-4.999990 F100.0(Penetrate)
G01 X661.805245 Y-2338.091312 Z-4.999990 F400.000000
G01 X659.971393 Y-2338.091312 Z-4.999990
G01 X659.548652 Y-2338.091312 Z-4.999990
G01 X656.726430 Y-2338.091312 Z-4.999990
G01 X654.766058 Y-2338.091312 Z-4.999990
G01 X654.227296 Y-2338.118574 Z-4.999990
G01 X651.408686 Y-2338.261266 Z-4.999990
G01 X649.462594 Y-2338.359790 Z-4.999990
G01 X649.242687 Y-2338.381944 Z-4.999990
G01 X640.818636 Y-2339.230304 Z-4.999990
G01 X639.193854 Y-2339.393937 Z-4.999990
G01 X638.678996 Y-2339.472028 Z-4.999990
G01 X635.888693 Y-2339.895163 Z-4.999990
G01 X633.980194 Y-2340.184611 Z-4.999990
G01 X633.791500 Y-2340.222852 Z-4.999990
G01 X625.493630 Y-2341.905122 Z-4.999990
G01 X623.921455 Y-2342.223864 Z-4.999990
G01 X623.427877 Y-2342.349763 Z-4.999990
G01 X620.693200 Y-2343.047303 Z-4.999990
G01 X618.833242 Y-2343.521719 Z-4.999990
G01 X618.663119 Y-2343.574156 Z-4.999990
G01 X610.572259 Y-2346.068690 Z-4.999990
G01 X609.053480 Y-2346.536953 Z-4.999990
G01 X608.579036 Y-2346.709334 Z-4.999990
G01 X605.926430 Y-2347.672982 Z-4.999990
G01 X604.126050 Y-2348.327032 Z-4.999990
G01 X603.963433 Y-2348.395330 Z-4.999990
G01 X596.157505 Y-2351.674357 Z-4.999990
G01 X594.694013 Y-2352.289150 Z-4.999990
G01 X594.237180 Y-2352.508070 Z-4.999990
G01 X591.692072 Y-2353.727665 Z-4.999990
G01 X589.962530 Y-2354.556467 Z-4.999990
G01 X589.797966 Y-2354.645536 Z-4.999990
G01 X582.352040 Y-2358.675782 Z-4.999990
G01 X580.946856 Y-2359.436371 Z-4.999990
G01 X580.506759 Y-2359.703269 Z-4.999990
G01 X578.093702 Y-2361.166845 Z-4.999990
G01 X576.446428 Y-2362.165968 Z-4.999990
G01 X576.272099 Y-2362.283852 Z-4.999990
G01 X569.258482 Y-2367.026597 Z-4.999990
G01 X567.915809 Y-2367.934534 Z-4.999990
G01 X567.492307 Y-2368.252260 Z-4.999990
G01 X565.234868 Y-2369.946016 Z-4.999990
G01 X563.681601 Y-2371.111425 Z-4.999990
G01 X563.491468 Y-2371.269413 Z-4.999990
G01 X556.979444 Y-2376.680318 Z-4.999990
G01 X555.704787 Y-2377.739470 Z-4.999990
G01 X555.298613 Y-2378.112201 Z-4.999990
G01 X553.219285 Y-2380.020419 Z-4.999990
G01 X551.772134 Y-2381.348443 Z-4.999990
G01 X551.375724 Y-2381.750469 Z-4.999990
G01 X549.394157 Y-2383.760032 Z-4.999990
G01 X548.094581 Y-2385.078010 Z-4.999990
G01 X547.785773 Y-2385.391164 Z-4.999990
G01 X545.804234 Y-2387.400727 Z-4.999990
G01 X544.417169 Y-2388.807407 Z-4.999990
G01 X544.046865 Y-2389.222387 Z-4.999990
G01 X542.167857 Y-2391.328132 Z-4.999990
G01 X540.859447 Y-2392.794445 Z-4.999990
G01 X540.696802 Y-2392.995755 Z-4.999990
G01 X535.375869 Y-2399.581495 Z-4.999990
G01 X534.325946 Y-2400.881015 Z-4.999990
G01 X534.007882 Y-2401.316964 Z-4.999990
G01 X532.344548 Y-2403.596924 Z-4.999990
G01 X531.195763 Y-2405.171555 Z-4.999990
G01 X531.067070 Y-2405.367276 Z-4.999990
G01 X526.415426 Y-2412.441656 Z-4.999990
G01 X525.511215 Y-2413.816784 Z-4.999990
G01 X525.242088 Y-2414.273137 Z-4.999990
G01 X523.808427 Y-2416.704087 Z-4.999990
G01 X522.822991 Y-2418.375011 Z-4.999990
G01 X522.719557 Y-2418.571523 Z-4.999990
G01 X518.776320 Y-2426.063874 Z-4.999990
G01 X518.015590 Y-2427.509247 Z-4.999990
G01 X517.793481 Y-2427.985976 Z-4.999990
G01 X516.601544 Y-2430.544123 Z-4.999990
G01 X515.783635 Y-2432.299545 Z-4.999990
G01 X515.699985 Y-2432.504298 Z-4.999990
G01 X512.498597 Y-2440.342371 Z-4.999990
G01 X511.881433 Y-2441.853360 Z-4.999990
G01 X511.705694 Y-2442.350918 Z-4.999990
G01 X510.765724 Y-2445.012020 Z-4.999990
G01 X510.119943 Y-2446.840312 Z-4.999990
G01 X510.053593 Y-2447.061630 Z-4.999990
G01 X507.622446 Y-2455.171738 Z-4.999990
G01 X507.151022 Y-2456.744421 Z-4.999990
G01 X507.022244 Y-2457.263710 Z-4.999990
G01 X506.342935 Y-2460.002959 Z-4.999990
G01 X505.874305 Y-2461.892662 Z-4.999990
G01 X505.825594 Y-2462.139833 Z-4.999990
G01 X504.188281 Y-2470.446677 Z-4.999990
G01 X503.866802 Y-2472.077724 Z-4.999990
G01 X503.786848 Y-2472.620070 Z-4.999990
G01 X503.375227 Y-2475.412123 Z-4.999990
G01 X503.089252 Y-2477.351836 Z-4.999990
G01 X503.061509 Y-2477.635187 Z-4.999990
G01 X502.236517 Y-2486.061581 Z-4.999990
G01 X502.071389 Y-2487.748423 Z-4.999990
G01 X502.043477 Y-2488.315549 Z-4.999990
G01 X501.904765 Y-2491.134356 Z-4.999990
G01 X501.807398 Y-2493.112734 Z-4.999990
G01 X501.807398 Y-2493.692475 Z-4.999990
G01 X501.807398 Y-2496.514697 Z-4.999990
G01 X501.807398 Y-2498.382557 Z-4.999990
G01 X501.807398 Y-2498.839305 Z-4.999990
G01 X501.807398 Y-2501.661527 Z-4.999990
G01 X501.807398 Y-2503.652379 Z-4.999990
G01 X501.835395 Y-2504.221367 Z-4.999990
G01 X501.974107 Y-2507.040175 Z-4.999990
G01 X502.071389 Y-2509.016690 Z-4.999990
G01 X502.099047 Y-2509.299138 Z-4.999990
G01 X502.924010 Y-2517.725503 Z-4.999990
G01 X503.089252 Y-2519.413249 Z-4.999990
G01 X503.169403 Y-2519.956950 Z-4.999990
G01 X503.581052 Y-2522.749002 Z-4.999990
G01 X503.866830 Y-2524.687361 Z-4.999990
G01 X503.915429 Y-2524.933910 Z-4.999990
G01 X505.552713 Y-2533.240755 Z-4.999990
G01 X505.874333 Y-2534.872394 Z-4.999990
G01 X506.003309 Y-2535.392473 Z-4.999990
G01 X506.682618 Y-2538.131722 Z-4.999990
G01 X507.151050 Y-2540.020636 Z-4.999990
G01 X507.217288 Y-2540.241587 Z-4.999990
G01 X509.648435 Y-2548.351723 Z-4.999990
G01 X510.119943 Y-2549.924717 Z-4.999990
G01 X510.295768 Y-2550.422444 Z-4.999990
G01 X511.235709 Y-2553.083545 Z-4.999990
G01 X511.881433 Y-2554.911640 Z-4.999990
G01 X511.965028 Y-2555.116279 Z-4.999990
G01 X515.166444 Y-2562.954352 Z-4.999990
G01 X515.783635 Y-2564.465426 Z-4.999990
G01 X516.005575 Y-2564.941761 Z-4.999990
G01 X517.197512 Y-2567.499908 Z-4.999990
G01 X518.015618 Y-2569.255697 Z-4.999990
G01 X518.119109 Y-2569.452350 Z-4.999990
G01 X522.062374 Y-2576.944672 Z-4.999990
G01 X522.822991 Y-2578.389932 Z-4.999990
G01 X523.091582 Y-2578.845354 Z-4.999990
G01 X524.525271 Y-2581.276304 Z-4.999990
G01 X525.511215 Y-2582.948132 Z-4.999990
G01 X525.640134 Y-2583.144191 Z-4.999990
G01 X530.291777 Y-2590.218571 Z-4.999990
G01 X531.195763 Y-2591.593332 Z-4.999990
G01 X531.512868 Y-2592.028011 Z-4.999990
G01 X533.176201 Y-2594.307943 Z-4.999990
G01 X534.325946 Y-2595.883900 Z-4.999990
G01 X534.489070 Y-2596.085774 Z-4.999990
G01 X539.809975 Y-2602.671542 Z-4.999990
G01 X540.859447 Y-2603.970470 Z-4.999990
G01 X541.228340 Y-2604.383897 Z-4.999990
G01 X543.107347 Y-2606.489670 Z-4.999990
G01 X544.417169 Y-2607.957536 Z-4.999990
G01 X544.813437 Y-2608.359421 Z-4.999990
G01 X546.795004 Y-2610.368984 Z-4.999990
G01 X548.094581 Y-2611.686934 Z-4.999990
G01 X548.403388 Y-2612.000116 Z-4.999990
G01 X550.384955 Y-2614.009679 Z-4.999990
G01 X551.772162 Y-2615.416472 Z-4.999990
G01 X552.179606 Y-2615.790417 Z-4.999990
G01 X554.258963 Y-2617.698606 Z-4.999990
G01 X555.704787 Y-2619.025445 Z-4.999990
G01 X555.894102 Y-2619.182756 Z-4.999990
G01 X562.406126 Y-2624.593661 Z-4.999990
G01 X563.681601 Y-2625.653462 Z-4.999990
G01 X564.106120 Y-2625.971978 Z-4.999990
G01 X566.363587 Y-2627.665735 Z-4.999990
G01 X567.915809 Y-2628.830325 Z-4.999990
G01 X568.089545 Y-2628.947814 Z-4.999990
G01 X575.103163 Y-2633.690559 Z-4.999990
G01 X576.446428 Y-2634.598919 Z-4.999990
G01 X576.887174 Y-2634.866240 Z-4.999990
G01 X579.300230 Y-2636.329788 Z-4.999990
G01 X580.946856 Y-2637.328516 Z-4.999990
G01 X581.111053 Y-2637.417388 Z-4.999990
G01 X588.556978 Y-2641.447634 Z-4.999990
G01 X589.962530 Y-2642.208420 Z-4.999990
G01 X590.419532 Y-2642.427397 Z-4.999990
G01 X592.964612 Y-2643.647020 Z-4.999990
G01 X594.694013 Y-2644.475737 Z-4.999990
G01 X594.856517 Y-2644.544007 Z-4.999990
G01 X602.662445 Y-2647.823034 Z-4.999990
G01 X604.126050 Y-2648.437855 Z-4.999990
G01 X604.600126 Y-2648.610067 Z-4.999990
G01 X607.252705 Y-2649.573743 Z-4.999990
G01 X609.053480 Y-2650.227934 Z-4.999990
G01 X609.223801 Y-2650.280456 Z-4.999990
G01 X617.314633 Y-2652.774990 Z-4.999990
G01 X618.833242 Y-2653.243197 Z-4.999990
G01 X619.325861 Y-2653.368842 Z-4.999990
G01 X622.060538 Y-2654.066382 Z-4.999990
G01 X623.921455 Y-2654.541052 Z-4.999990
G01 X624.110657 Y-2654.579406 Z-4.999990
G01 X632.408526 Y-2656.261676 Z-4.999990
G01 X633.980194 Y-2656.580333 Z-4.999990
G01 X634.493528 Y-2656.658170 Z-4.999990
G01 X637.283831 Y-2657.081334 Z-4.999990
G01 X639.193854 Y-2657.370979 Z-4.999990
G01 X639.414608 Y-2657.393218 Z-4.999990
G01 X647.838688 Y-2658.241606 Z-4.999990
G01 X649.462594 Y-2658.405126 Z-4.999990
G01 X649.999381 Y-2658.432304 Z-4.999990
G01 X652.817991 Y-2658.575023 Z-4.999990
G01 X654.766058 Y-2658.673632 Z-4.999990
G01 X655.315319 Y-2658.673632 Z-4.999990
G01 X658.137541 Y-2658.673632 Z-4.999990
G01 X659.971393 Y-2658.673632 Z-4.999990
G01 X660.394134 Y-2658.673632 Z-4.999990
G01 X663.216356 Y-2658.673632 Z-4.999990
G01 X665.176700 Y-2658.673632 Z-4.999990
G01 X665.715490 Y-2658.646369 Z-4.999990
G01 X668.534100 Y-2658.503678 Z-4.999990
G01 X670.480191 Y-2658.405126 Z-4.999990
G01 X670.700099 Y-2658.382999 Z-4.999990
G01 X679.124150 Y-2657.534611 Z-4.999990
G01 X680.748904 Y-2657.370979 Z-4.999990
G01 X681.263762 Y-2657.292916 Z-4.999990
G01 X684.054093 Y-2656.869752 Z-4.999990
G01 X685.962592 Y-2656.580333 Z-4.999990
G01 X686.151286 Y-2656.542064 Z-4.999990
G01 X694.449127 Y-2654.859794 Z-4.999990
G01 X696.021303 Y-2654.541052 Z-4.999990
G01 X696.514909 Y-2654.415153 Z-4.999990
G01 X699.249586 Y-2653.717612 Z-4.999990
G01 X701.109515 Y-2653.243197 Z-4.999990
G01 X701.279667 Y-2653.190731 Z-4.999990
G01 X709.370499 Y-2650.696197 Z-4.999990
G01 X710.889277 Y-2650.227934 Z-4.999990
G01 X711.363749 Y-2650.055581 Z-4.999990
G01 X714.016356 Y-2649.091905 Z-4.999990
G01 X715.816708 Y-2648.437855 Z-4.999990
G01 X715.979325 Y-2648.369557 Z-4.999990
G01 X723.785253 Y-2645.090502 Z-4.999990
G01 X725.248744 Y-2644.475737 Z-4.999990
G01 X725.705606 Y-2644.256818 Z-4.999990
G01 X728.250686 Y-2643.037222 Z-4.999990
G01 X729.980228 Y-2642.208420 Z-4.999990
G01 X730.144792 Y-2642.119351 Z-4.999990
G01 X737.590717 Y-2638.089105 Z-4.999990
G01 X738.995902 Y-2637.328516 Z-4.999990
G01 X739.435999 Y-2637.061590 Z-4.999990
G01 X741.849055 Y-2635.598014 Z-4.999990
G01 X743.496330 Y-2634.598919 Z-4.999990
G01 X743.670659 Y-2634.481035 Z-4.999990
G01 X750.684304 Y-2629.738290 Z-4.999990
G01 X752.026977 Y-2628.830325 Z-4.999990
G01 X752.450451 Y-2628.512599 Z-4.999990
G01 X754.707918 Y-2626.818871 Z-4.999990
G01 X756.261157 Y-2625.653462 Z-4.999990
G01 X756.451290 Y-2625.495474 Z-4.999990
G01 X762.963314 Y-2620.084569 Z-4.999990
G01 X764.237998 Y-2619.025445 Z-4.999990
G01 X764.644144 Y-2618.652714 Z-4.999990
G01 X766.723501 Y-2616.744525 Z-4.999990
G01 X768.170624 Y-2615.416500 Z-4.999990
G01 X768.567062 Y-2615.014475 Z-4.999990
G01 X770.548600 Y-2613.004911 Z-4.999990
G01 X771.848205 Y-2611.686962 Z-4.999990
G01 X772.157013 Y-2611.373780 Z-4.999990
G01 X774.138580 Y-2609.364188 Z-4.999990
G01 X775.525617 Y-2607.957536 Z-4.999990
G01 X775.895921 Y-2607.542557 Z-4.999990
G01 X777.774929 Y-2605.436784 Z-4.999990
G01 X779.083339 Y-2603.970470 Z-4.999990
G01 X779.245984 Y-2603.769161 Z-4.999990
G01 X784.566917 Y-2597.183421 Z-4.999990
G01 X785.616868 Y-2595.883900 Z-4.999990
G01 X785.934933 Y-2595.447952 Z-4.999990
G01 X787.598294 Y-2593.167991 Z-4.999990
G01 X788.747079 Y-2591.593360 Z-4.999990
G01 X788.875773 Y-2591.397639 Z-4.999990
G01 X793.527444 Y-2584.323288 Z-4.999990
G01 X794.431656 Y-2582.948160 Z-4.999990
G01 X794.700783 Y-2582.491807 Z-4.999990
G01 X796.134472 Y-2580.060857 Z-4.999990
G01 X797.119907 Y-2578.389932 Z-4.999990
G01 X797.223342 Y-2578.193421 Z-4.999990
G01 X801.166664 Y-2570.701098 Z-4.999990
G01 X801.927365 Y-2569.255725 Z-4.999990
G01 X802.149502 Y-2568.779024 Z-4.999990
G01 X803.341468 Y-2566.220849 Z-4.999990
G01 X804.159376 Y-2564.465455 Z-4.999990
G01 X804.243027 Y-2564.260702 Z-4.999990
G01 X807.444471 Y-2556.422658 Z-4.999990
G01 X808.061635 Y-2554.911668 Z-4.999990
G01 X808.237403 Y-2554.414110 Z-4.999990
G01 X809.177372 Y-2551.753009 Z-4.999990
G01 X809.823181 Y-2549.924745 Z-4.999990
G01 X809.889503 Y-2549.703426 Z-4.999990
G01 X812.320707 Y-2541.593319 Z-4.999990
G01 X812.792159 Y-2540.020664 Z-4.999990
G01 X812.920937 Y-2539.501375 Z-4.999990
G01 X813.600246 Y-2536.762126 Z-4.999990
G01 X814.068904 Y-2534.872423 Z-4.999990
G01 X814.117616 Y-2534.625252 Z-4.999990
G01 X815.754956 Y-2526.318408 Z-4.999990
G01 X816.076435 Y-2524.687361 Z-4.999990
G01 X816.156417 Y-2524.145043 Z-4.999990
G01 X816.568038 Y-2521.352990 Z-4.999990
G01 X816.854042 Y-2519.413277 Z-4.999990
G01 X816.881785 Y-2519.129926 Z-4.999990
G01 X817.706777 Y-2510.703532 Z-4.999990
G01 X817.871933 Y-2509.016690 Z-4.999990
G01 X817.899845 Y-2508.449593 Z-4.999990
G01 X818.038557 Y-2505.630757 Z-4.999990
G01 X818.135924 Y-2503.652379 Z-4.999990
G01 X818.135924 Y-2503.072638 Z-4.999990
G01 X818.135924 Y-2500.250416 Z-4.999990
G01 X818.135924 Y-2498.382557 Z-4.999990
G01 X818.135924 Y-2497.925808 Z-4.999990
G01 X818.135924 Y-2495.103586 Z-4.999990
G01 X818.135924 Y-2493.112734 Z-4.999990
G01 X818.107927 Y-2492.543746 Z-4.999990
G01 X817.969215 Y-2489.724938 Z-4.999990
G01 X817.871933 Y-2487.748423 Z-4.999990
G01 X817.844275 Y-2487.465975 Z-4.999990
G01 X817.019312 Y-2479.039582 Z-4.999990
G01 X816.854071 Y-2477.351836 Z-4.999990
G01 X816.773919 Y-2476.808135 Z-4.999990
G01 X816.362298 Y-2474.016082 Z-4.999990
G01 X816.076520 Y-2472.077724 Z-4.999990
G01 X816.027921 Y-2471.831146 Z-4.999990
G01 X814.390609 Y-2463.524302 Z-4.999990
G01 X814.069017 Y-2461.892662 Z-4.999990
G01 X813.940041 Y-2461.372583 Z-4.999990
G01 X813.260733 Y-2458.633334 Z-4.999990
G01 X812.792300 Y-2456.744421 Z-4.999990
G01 X812.726063 Y-2456.523441 Z-4.999990
G01 X810.294916 Y-2448.413306 Z-4.999990
G01 X809.823379 Y-2446.840312 Z-4.999990
G01 X809.647582 Y-2446.342556 Z-4.999990
G01 X808.707613 Y-2443.681455 Z-4.999990
G01 X808.061889 Y-2441.853360 Z-4.999990
G01 X807.978294 Y-2441.648721 Z-4.999990
G01 X804.776907 Y-2433.810620 Z-4.999990
G01 X804.159715 Y-2432.299545 Z-4.999990
G01 X803.937775 Y-2431.823211 Z-4.999990
G01 X802.745810 Y-2429.265036 Z-4.999990
G01 X801.927732 Y-2427.509247 Z-4.999990
G01 X801.824241 Y-2427.312594 Z-4.999990
G01 X797.880976 Y-2419.820243 Z-4.999990
G01 X797.120331 Y-2418.375011 Z-4.999990
G01 X796.851740 Y-2417.919561 Z-4.999990
G01 X795.418079 Y-2415.488612 Z-4.999990
G01 X794.432108 Y-2413.816784 Z-4.999990
G01 X794.303188 Y-2413.620724 Z-4.999990
G01 X789.651545 Y-2406.546344 Z-4.999990
G01 X788.747587 Y-2405.171555 Z-4.999990
G01 X788.430483 Y-2404.736905 Z-4.999990
G01 X786.767121 Y-2402.456944 Z-4.999990
G01 X785.617404 Y-2400.881015 Z-4.999990
G01 X785.454280 Y-2400.679142 Z-4.999990
G01 X780.133347 Y-2394.093373 Z-4.999990
G01 X779.083875 Y-2392.794445 Z-4.999990
G01 X778.714983 Y-2392.381018 Z-4.999990
G01 X776.835975 Y-2390.275273 Z-4.999990
G01 X775.526182 Y-2388.807407 Z-4.999990
G01 X775.129914 Y-2388.405523 Z-4.999990
G01 X773.148347 Y-2386.395931 Z-4.999990
G01 X771.848770 Y-2385.077982 Z-4.999990
G01 X771.539962 Y-2384.764828 Z-4.999990
G01 X769.558395 Y-2382.755265 Z-4.999990
G01 X768.171188 Y-2381.348443 Z-4.999990
G01 X767.763744 Y-2380.974499 Z-4.999990
G01 X765.684387 Y-2379.066310 Z-4.999990
G01 X764.238563 Y-2377.739470 Z-4.999990
G01 X764.049192 Y-2377.582131 Z-4.999990
G01 X757.537168 Y-2372.171226 Z-4.999990
G01 X756.261693 Y-2371.111397 Z-4.999990
G01 X755.837146 Y-2370.792881 Z-4.999990
G01 X753.579679 Y-2369.099152 Z-4.999990
G01 X752.027456 Y-2367.934534 Z-4.999990
G01 X751.853692 Y-2367.817045 Z-4.999990
G01 X744.840075 Y-2363.074300 Z-4.999990
G01 X743.496782 Y-2362.165940 Z-4.999990
G01 X743.056007 Y-2361.898619 Z-4.999990
G01 X740.642951 Y-2360.435071 Z-4.999990
G01 X738.996297 Y-2359.436343 Z-4.999990
G01 X738.832072 Y-2359.347471 Z-4.999990
G01 X731.386146 Y-2355.317253 Z-4.999990
G01 X729.980567 Y-2354.556439 Z-4.999990
G01 X729.523564 Y-2354.337462 Z-4.999990
G01 X726.978456 Y-2353.117867 Z-4.999990
G01 X725.249055 Y-2352.289150 Z-4.999990
G01 X725.086495 Y-2352.220852 Z-4.999990
G01 X717.280567 Y-2348.941853 Z-4.999990
G01 X715.816934 Y-2348.327032 Z-4.999990
G01 X715.342857 Y-2348.154792 Z-4.999990
G01 X712.690250 Y-2347.191144 Z-4.999990
G01 X710.889475 Y-2346.536953 Z-4.999990
G01 X710.719154 Y-2346.484431 Z-4.999990
G01 X702.628294 Y-2343.989926 Z-4.999990
G01 X701.109657 Y-2343.521719 Z-4.999990
G01 X700.617009 Y-2343.396045 Z-4.999990
G01 X697.882361 Y-2342.698533 Z-4.999990
G01 X696.021416 Y-2342.223864 Z-4.999990
G01 X695.832186 Y-2342.185481 Z-4.999990
G01 X687.534344 Y-2340.503239 Z-4.999990
G01 X685.962620 Y-2340.184611 Z-4.999990
G01 X685.449286 Y-2340.106745 Z-4.999990
G01 X682.658984 Y-2339.683610 Z-4.999990
G01 X680.748960 Y-2339.393937 Z-4.999990
G01 X680.528178 Y-2339.371698 Z-4.999990
G01 X672.104126 Y-2338.523338 Z-4.999990
G01 X670.480191 Y-2338.359790 Z-4.999990
G01 X669.943405 Y-2338.332612 Z-4.999990
G01 X667.124795 Y-2338.189920 Z-4.999990
G01 X665.176700 Y-2338.091312 Z-4.999990
G01 X664.627467 Y-2338.091312 Z-4.999990
G00 Z5.000000

G00 Z5.000000
G00 X655.405517 Y-2353.465650

G01 Z-4.999990 F100.0(Penetrate)
G01 X658.227739 Y-2353.465650 Z-4.999990 F400.000000
G01 X659.971393 Y-2353.465650 Z-4.999990
G01 X660.303935 Y-2353.465650 Z-4.999990
G01 X663.126158 Y-2353.465650 Z-4.999990
G01 X664.743347 Y-2353.465650 Z-4.999990
G01 X664.939774 Y-2353.475612 Z-4.999990
G01 X667.758384 Y-2353.618247 Z-4.999990
G01 X669.366091 Y-2353.699612 Z-4.999990
G01 X669.862322 Y-2353.749565 Z-4.999990
G01 X676.882374 Y-2354.456363 Z-4.999990
G01 X678.781758 Y-2354.647625 Z-4.999990
G01 X678.960546 Y-2354.674718 Z-4.999990
G01 X681.750877 Y-2355.097797 Z-4.999990
G01 X683.326326 Y-2355.336642 Z-4.999990
G01 X683.789622 Y-2355.430565 Z-4.999990
G01 X690.704546 Y-2356.832250 Z-4.999990
G01 X692.550308 Y-2357.206392 Z-4.999990
G01 X692.716932 Y-2357.248895 Z-4.999990
G01 X695.451637 Y-2357.946379 Z-4.999990
G01 X696.986559 Y-2358.337849 Z-4.999990
G01 X697.426064 Y-2358.473344 Z-4.999990
G01 X704.168466 Y-2360.551996 Z-4.999990
G01 X705.956259 Y-2361.103176 Z-4.999990
G01 X706.115376 Y-2361.160975 Z-4.999990
G01 X708.767982 Y-2362.124594 Z-4.999990
G01 X710.253798 Y-2362.664373 Z-4.999990
G01 X710.677103 Y-2362.842173 Z-4.999990
G01 X717.182015 Y-2365.574733 Z-4.999990
G01 X718.906421 Y-2366.299113 Z-4.999990
G01 X719.061784 Y-2366.373563 Z-4.999990
G01 X721.606864 Y-2367.593214 Z-4.999990
G01 X723.034598 Y-2368.277406 Z-4.999990
G01 X723.447856 Y-2368.501067 Z-4.999990
G01 X729.652681 Y-2371.859765 Z-4.999990
G01 X731.307265 Y-2372.755398 Z-4.999990
G01 X731.461923 Y-2372.849208 Z-4.999990
G01 X733.874951 Y-2374.312841 Z-4.999990
G01 X735.235488 Y-2375.138087 Z-4.999990
G01 X735.643356 Y-2375.413931 Z-4.999990
G01 X741.487896 Y-2379.366425 Z-4.999990
G01 X743.065292 Y-2380.433169 Z-4.999990
G01 X743.221587 Y-2380.550432 Z-4.999990
G01 X745.478969 Y-2382.244273 Z-4.999990
G01 X746.762911 Y-2383.207695 Z-4.999990
G01 X747.168690 Y-2383.544838 Z-4.999990
G01 X752.595231 Y-2388.054128 Z-4.999990
G01 X754.087114 Y-2389.293817 Z-4.999990
G01 X754.246570 Y-2389.440178 Z-4.999990
G01 X756.325870 Y-2391.348423 Z-4.999990
G01 X757.523706 Y-2392.447707 Z-4.999990
G01 X757.682456 Y-2392.608715 Z-4.999990
G01 X759.664023 Y-2394.618278 Z-4.999990
G01 X760.901144 Y-2395.872897 Z-4.999990
G01 X761.147496 Y-2396.122720 Z-4.999990
G01 X763.129063 Y-2398.132284 Z-4.999990
G01 X764.278695 Y-2399.298172 Z-4.999990
G01 X764.424124 Y-2399.461184 Z-4.999990
G01 X766.303131 Y-2401.566956 Z-4.999990
G01 X767.389489 Y-2402.784435 Z-4.999990
G01 X767.730978 Y-2403.207119 Z-4.999990
G01 X772.165028 Y-2408.695297 Z-4.999990
G01 X773.392892 Y-2410.215064 Z-4.999990
G01 X773.514022 Y-2410.381123 Z-4.999990
G01 X775.177327 Y-2412.661084 Z-4.999990
G01 X776.131069 Y-2413.968422 Z-4.999990
G01 X776.417863 Y-2414.404596 Z-4.999990
G01 X780.294129 Y-2420.299965 Z-4.999990
G01 X781.355962 Y-2421.914868 Z-4.999990
G01 X781.456856 Y-2422.085980 Z-4.999990
G01 X782.890489 Y-2424.516957 Z-4.999990
G01 X783.708735 Y-2425.904418 Z-4.999990
G01 X783.947213 Y-2426.357526 Z-4.999990
G01 X787.233155 Y-2432.601185 Z-4.999990
G01 X788.128759 Y-2434.302900 Z-4.999990
G01 X788.211930 Y-2434.481405 Z-4.999990
G01 X789.403867 Y-2437.039581 Z-4.999990
G01 X790.083176 Y-2438.497541 Z-4.999990
G01 X790.276837 Y-2438.971702 Z-4.999990
G01 X792.944627 Y-2445.503453 Z-4.999990
G01 X793.671886 Y-2447.284050 Z-4.999990
G01 X793.738462 Y-2447.472546 Z-4.999990
G01 X794.678431 Y-2450.133648 Z-4.999990
G01 X795.214907 Y-2451.652483 Z-4.999990
G01 X795.364796 Y-2452.152440 Z-4.999990
G01 X797.390756 Y-2458.910872 Z-4.999990
G01 X797.945915 Y-2460.762870 Z-4.999990
G01 X797.995869 Y-2460.964292 Z-4.999990
G01 X798.675178 Y-2463.703541 Z-4.999990
G01 X799.064588 Y-2465.273769 Z-4.999990
G01 X799.169349 Y-2465.805137 Z-4.999990
G01 X800.533780 Y-2472.727484 Z-4.999990
G01 X800.911535 Y-2474.643942 Z-4.999990
G01 X800.943623 Y-2474.861620 Z-4.999990
G01 X801.355273 Y-2477.653673 Z-4.999990
G01 X801.592988 Y-2479.265980 Z-4.999990
G01 X801.648727 Y-2479.835335 Z-4.999990
G01 X802.336249 Y-2486.857306 Z-4.999990
G01 X802.529599 Y-2488.831987 Z-4.999990
G01 X802.541283 Y-2489.069872 Z-4.999990
G01 X802.680024 Y-2491.888708 Z-4.999990
G01 X802.761022 Y-2493.534120 Z-4.999990
G01 X802.761022 Y-2493.780189 Z-4.999990
G01 X802.761022 Y-2496.602412 Z-4.999990
G01 X802.761022 Y-2498.382557 Z-4.999990
G01 X802.761022 Y-2498.751590 Z-4.999990
G01 X802.761022 Y-2501.573813 Z-4.999990
G01 X802.761022 Y-2503.230993 Z-4.999990
G01 X802.749394 Y-2503.467016 Z-4.999990
G01 X802.610654 Y-2506.285823 Z-4.999990
G01 X802.529571 Y-2507.933126 Z-4.999990
G01 X802.473748 Y-2508.503384 Z-4.999990
G01 X801.786226 Y-2515.525355 Z-4.999990
G01 X801.592988 Y-2517.499105 Z-4.999990
G01 X801.561097 Y-2517.715400 Z-4.999990
G01 X801.149448 Y-2520.507452 Z-4.999990
G01 X800.911506 Y-2522.121143 Z-4.999990
G01 X800.806661 Y-2522.653103 Z-4.999990
G01 X799.442201 Y-2529.575478 Z-4.999990
G01 X799.064588 Y-2531.491287 Z-4.999990
G01 X799.014832 Y-2531.691891 Z-4.999990
G01 X798.335523 Y-2534.431140 Z-4.999990
G01 X797.945915 Y-2536.002158 Z-4.999990
G01 X797.795942 Y-2536.502482 Z-4.999990
G01 X795.769982 Y-2543.260885 Z-4.999990
G01 X795.214907 Y-2545.112545 Z-4.999990
G01 X795.148388 Y-2545.300844 Z-4.999990
G01 X794.208446 Y-2547.961917 Z-4.999990
G01 X793.671886 Y-2549.480979 Z-4.999990
G01 X793.478196 Y-2549.955197 Z-4.999990
G01 X790.810378 Y-2556.486948 Z-4.999990
G01 X790.083176 Y-2558.267431 Z-4.999990
G01 X789.999807 Y-2558.446304 Z-4.999990
G01 X788.807898 Y-2561.004479 Z-4.999990
G01 X788.128759 Y-2562.462072 Z-4.999990
G01 X787.890366 Y-2562.915039 Z-4.999990
G01 X784.604396 Y-2569.158697 Z-4.999990
G01 X783.708735 Y-2570.860526 Z-4.999990
G01 X783.607305 Y-2571.032512 Z-4.999990
G01 X782.173672 Y-2573.463489 Z-4.999990
G01 X781.355933 Y-2574.850075 Z-4.999990
G01 X781.069393 Y-2575.285911 Z-4.999990
G01 X777.193099 Y-2581.181279 Z-4.999990
G01 X776.131069 Y-2582.796522 Z-4.999990
G01 X776.008979 Y-2582.963851 Z-4.999990
G01 X774.345675 Y-2585.243840 Z-4.999990
G01 X773.392892 Y-2586.549880 Z-4.999990
G01 X773.051827 Y-2586.972000 Z-4.999990
G01 X768.617805 Y-2592.460206 Z-4.999990
G01 X767.389489 Y-2593.980537 Z-4.999990
G01 X767.242621 Y-2594.145101 Z-4.999990
G01 X765.363642 Y-2596.250902 Z-4.999990
G01 X764.278667 Y-2597.466800 Z-4.999990
G01 X764.119832 Y-2597.627892 Z-4.999990
G01 X762.138265 Y-2599.637484 Z-4.999990
G01 X760.901144 Y-2600.892103 Z-4.999990
G01 X760.654820 Y-2601.141898 Z-4.999990
G01 X758.673254 Y-2603.151461 Z-4.999990
G01 X757.523734 Y-2604.317236 Z-4.999990
G01 X757.365549 Y-2604.462383 Z-4.999990
G01 X755.286248 Y-2606.370629 Z-4.999990
G01 X754.087114 Y-2607.471098 Z-4.999990
G01 X753.680545 Y-2607.808946 Z-4.999990
G01 X748.254004 Y-2612.318208 Z-4.999990
G01 X746.762939 Y-2613.557220 Z-4.999990
G01 X746.607689 Y-2613.673693 Z-4.999990
G01 X744.350278 Y-2615.367535 Z-4.999990
G01 X743.065292 Y-2616.331719 Z-4.999990
G01 X742.656804 Y-2616.607958 Z-4.999990
G01 X736.812264 Y-2620.560452 Z-4.999990
G01 X735.235488 Y-2621.626800 Z-4.999990
G01 X735.081479 Y-2621.720216 Z-4.999990
G01 X732.668451 Y-2623.183849 Z-4.999990
G01 X731.307265 Y-2624.009490 Z-4.999990
G01 X730.893668 Y-2624.233377 Z-4.999990
G01 X724.688815 Y-2627.592047 Z-4.999990
G01 X723.034598 Y-2628.487482 Z-4.999990
G01 X722.879404 Y-2628.561847 Z-4.999990
G01 X720.334324 Y-2629.781499 Z-4.999990
G01 X718.906421 Y-2630.465775 Z-4.999990
G01 X718.483003 Y-2630.643631 Z-4.999990
G01 X711.978063 Y-2633.376191 Z-4.999990
G01 X710.253798 Y-2634.100515 Z-4.999990
G01 X710.094286 Y-2634.158455 Z-4.999990
G01 X707.441679 Y-2635.122103 Z-4.999990
G01 X705.956259 Y-2635.661712 Z-4.999990
G01 X705.516923 Y-2635.797178 Z-4.999990
G01 X698.774522 Y-2637.875830 Z-4.999990
G01 X696.986559 Y-2638.427066 Z-4.999990
G01 X696.818947 Y-2638.469823 Z-4.999990
G01 X694.084270 Y-2639.167278 Z-4.999990
G01 X692.550308 Y-2639.558523 Z-4.999990
G01 X692.087520 Y-2639.652334 Z-4.999990
G01 X685.172596 Y-2641.054019 Z-4.999990
G01 X683.326326 Y-2641.428274 Z-4.999990
G01 X683.146043 Y-2641.455593 Z-4.999990
G01 X680.355712 Y-2641.878672 Z-4.999990
G01 X678.781758 Y-2642.117319 Z-4.999990
G01 X678.286402 Y-2642.167188 Z-4.999990
G01 X671.266321 Y-2642.874013 Z-4.999990
G01 X669.366063 Y-2643.065332 Z-4.999990
G01 X669.167689 Y-2643.075379 Z-4.999990
G01 X666.349079 Y-2643.218014 Z-4.999990
G01 X664.743347 Y-2643.299294 Z-4.999990
G01 X664.537269 Y-2643.299294 Z-4.999990
G01 X661.715047 Y-2643.299294 Z-4.999990
G01 X659.971393 Y-2643.299294 Z-4.999990
G01 X659.638851 Y-2643.299294 Z-4.999990
G01 X656.816628 Y-2643.299294 Z-4.999990
G01 X655.199438 Y-2643.299294 Z-4.999990
G01 X655.003012 Y-2643.289332 Z-4.999990
G01 X652.184402 Y-2643.146696 Z-4.999990
G01 X650.576723 Y-2643.065332 Z-4.999990
G01 X650.080492 Y-2643.015378 Z-4.999990
G01 X643.060440 Y-2642.308553 Z-4.999990
G01 X641.161056 Y-2642.117319 Z-4.999990
G01 X640.982296 Y-2642.090226 Z-4.999990
G01 X638.191965 Y-2641.667146 Z-4.999990
G01 X636.616516 Y-2641.428274 Z-4.999990
G01 X636.153277 Y-2641.334378 Z-4.999990
G01 X629.238352 Y-2639.932665 Z-4.999990
G01 X627.392591 Y-2639.558523 Z-4.999990
G01 X627.225967 Y-2639.516020 Z-4.999990
G01 X624.491290 Y-2638.818536 Z-4.999990
G01 X622.956368 Y-2638.427066 Z-4.999990
G01 X622.516920 Y-2638.291571 Z-4.999990
G01 X615.774518 Y-2636.212892 Z-4.999990
G01 X613.986753 Y-2635.661740 Z-4.999990
G01 X613.827636 Y-2635.603941 Z-4.999990
G01 X611.175029 Y-2634.640293 Z-4.999990
G01 X609.689242 Y-2634.100543 Z-4.999990
G01 X609.265965 Y-2633.922715 Z-4.999990
G01 X602.761054 Y-2631.190154 Z-4.999990
G01 X601.036676 Y-2630.465775 Z-4.999990
G01 X600.881341 Y-2630.391324 Z-4.999990
G01 X598.336261 Y-2629.171673 Z-4.999990
G01 X596.908527 Y-2628.487482 Z-4.999990
G01 X596.495325 Y-2628.263820 Z-4.999990
G01 X590.290472 Y-2624.905122 Z-4.999990
G01 X588.635916 Y-2624.009490 Z-4.999990
G01 X588.481286 Y-2623.915679 Z-4.999990
G01 X586.068258 Y-2622.452046 Z-4.999990
G01 X584.707749 Y-2621.626800 Z-4.999990
G01 X584.299882 Y-2621.350985 Z-4.999990
G01 X578.455342 Y-2617.398462 Z-4.999990
G01 X576.877974 Y-2616.331719 Z-4.999990
G01 X576.721707 Y-2616.214455 Z-4.999990
G01 X574.464296 Y-2614.520614 Z-4.999990
G01 X573.180354 Y-2613.557220 Z-4.999990
G01 X572.774632 Y-2613.220078 Z-4.999990
G01 X567.348091 Y-2608.710787 Z-4.999990
G01 X565.856208 Y-2607.471098 Z-4.999990
G01 X565.696752 Y-2607.324766 Z-4.999990
G01 X563.617424 Y-2605.416520 Z-4.999990
G01 X562.419616 Y-2604.317236 Z-4.999990
G01 X562.260838 Y-2604.156229 Z-4.999990
G01 X560.279299 Y-2602.146665 Z-4.999990
G01 X559.042150 Y-2600.892075 Z-4.999990
G01 X558.795826 Y-2600.642252 Z-4.999990
G01 X556.814288 Y-2598.632688 Z-4.999990
G01 X555.664655 Y-2597.466800 Z-4.999990
G01 X555.519198 Y-2597.303788 Z-4.999990
G01 X553.640191 Y-2595.198016 Z-4.999990
G01 X552.553833 Y-2593.980537 Z-4.999990
G01 X552.212344 Y-2593.557825 Z-4.999990
G01 X547.778294 Y-2588.069647 Z-4.999990
G01 X546.550458 Y-2586.549852 Z-4.999990
G01 X546.429300 Y-2586.383820 Z-4.999990
G01 X544.765995 Y-2584.103832 Z-4.999990
G01 X543.812253 Y-2582.796494 Z-4.999990
G01 X543.525459 Y-2582.360319 Z-4.999990
G01 X539.649193 Y-2576.464951 Z-4.999990
G01 X538.587389 Y-2574.850047 Z-4.999990
G01 X538.486466 Y-2574.678936 Z-4.999990
G01 X537.052834 Y-2572.247958 Z-4.999990
G01 X536.234587 Y-2570.860469 Z-4.999990
G01 X535.996137 Y-2570.407361 Z-4.999990
G01 X532.710167 Y-2564.163703 Z-4.999990
G01 X531.814563 Y-2562.461987 Z-4.999990
G01 X531.731392 Y-2562.283482 Z-4.999990
G01 X530.539483 Y-2559.725307 Z-4.999990
G01 X529.860146 Y-2558.267347 Z-4.999990
G01 X529.666514 Y-2557.793213 Z-4.999990
G01 X526.998695 Y-2551.261462 Z-4.999990
G01 X526.271437 Y-2549.480866 Z-4.999990
G01 X526.204860 Y-2549.292369 Z-4.999990
G01 X525.264891 Y-2546.631268 Z-4.999990
G01 X524.728415 Y-2545.112404 Z-4.999990
G01 X524.578555 Y-2544.612448 Z-4.999990
G01 X522.552594 Y-2537.854044 Z-4.999990
G01 X521.997407 Y-2536.002045 Z-4.999990
G01 X521.947482 Y-2535.800651 Z-4.999990
G01 X521.268145 Y-2533.061403 Z-4.999990
G01 X520.878734 Y-2531.491175 Z-4.999990
G01 X520.774002 Y-2530.959835 Z-4.999990
G01 X519.409542 Y-2524.037460 Z-4.999990
G01 X519.031816 Y-2522.121030 Z-4.999990
G01 X518.999699 Y-2521.903352 Z-4.999990
G01 X518.588049 Y-2519.111327 Z-4.999990
G01 X518.350334 Y-2517.499020 Z-4.999990
G01 X518.294595 Y-2516.929693 Z-4.999990
G01 X517.607073 Y-2509.907694 Z-4.999990
G01 X517.413751 Y-2507.933069 Z-4.999990
G01 X517.402039 Y-2507.695184 Z-4.999990
G01 X517.263298 Y-2504.876349 Z-4.999990
G01 X517.182301 Y-2503.230965 Z-4.999990
G01 X517.182301 Y-2502.984924 Z-4.999990
G01 X517.182301 Y-2500.162701 Z-4.999990
G01 X517.182301 Y-2498.382557 Z-4.999990
G01 X517.182301 Y-2498.013523 Z-4.999990
G01 X517.182301 Y-2495.191301 Z-4.999990
G01 X517.182301 Y-2493.534120 Z-4.999990
G01 X517.193928 Y-2493.298097 Z-4.999990
G01 X517.332669 Y-2490.479290 Z-4.999990
G01 X517.413751 Y-2488.831987 Z-4.999990
G01 X517.469575 Y-2488.261701 Z-4.999990
G01 X518.157096 Y-2481.239730 Z-4.999990
G01 X518.350334 Y-2479.265980 Z-4.999990
G01 X518.382225 Y-2479.049685 Z-4.999990
G01 X518.793874 Y-2476.257632 Z-4.999990
G01 X519.031816 Y-2474.643942 Z-4.999990
G01 X519.136661 Y-2474.111953 Z-4.999990
G01 X520.501121 Y-2467.189607 Z-4.999990
G01 X520.878734 Y-2465.273769 Z-4.999990
G01 X520.928490 Y-2465.073166 Z-4.999990
G01 X521.607799 Y-2462.333917 Z-4.999990
G01 X521.997407 Y-2460.762870 Z-4.999990
G01 X522.147408 Y-2460.262575 Z-4.999990
G01 X524.173340 Y-2453.504143 Z-4.999990
G01 X524.728415 Y-2451.652483 Z-4.999990
G01 X524.794935 Y-2451.464184 Z-4.999990
G01 X525.734876 Y-2448.803083 Z-4.999990
G01 X526.271437 Y-2447.284050 Z-4.999990
G01 X526.465154 Y-2446.809775 Z-4.999990
G01 X529.132944 Y-2440.278052 Z-4.999990
G01 X529.860146 Y-2438.497541 Z-4.999990
G01 X529.943515 Y-2438.318668 Z-4.999990
G01 X531.135424 Y-2435.760493 Z-4.999990
G01 X531.814563 Y-2434.302900 Z-4.999990
G01 X532.052956 Y-2433.849905 Z-4.999990
G01 X535.338926 Y-2427.606246 Z-4.999990
G01 X536.234587 Y-2425.904418 Z-4.999990
G01 X536.336017 Y-2425.732432 Z-4.999990
G01 X537.769650 Y-2423.301454 Z-4.999990
G01 X538.587389 Y-2421.914868 Z-4.999990
G01 X538.873929 Y-2421.479033 Z-4.999990
G01 X542.750223 Y-2415.583664 Z-4.999990
G01 X543.812253 Y-2413.968422 Z-4.999990
G01 X543.934343 Y-2413.801064 Z-4.999990
G01 X545.597648 Y-2411.521104 Z-4.999990
G01 X546.550430 Y-2410.215064 Z-4.999990
G01 X546.891495 Y-2409.792944 Z-4.999990
G01 X551.325517 Y-2404.304738 Z-4.999990
G01 X552.553833 Y-2402.784435 Z-4.999990
G01 X552.700701 Y-2402.619843 Z-4.999990
G01 X554.579680 Y-2400.514070 Z-4.999990
G01 X555.664627 Y-2399.298172 Z-4.999990
G01 X555.823490 Y-2399.137051 Z-4.999990
G01 X557.805057 Y-2397.127488 Z-4.999990
G01 X559.042178 Y-2395.872897 Z-4.999990
G01 X559.288530 Y-2395.623046 Z-4.999990
G01 X561.270069 Y-2393.613483 Z-4.999990
G01 X562.419616 Y-2392.447707 Z-4.999990
G01 X562.577773 Y-2392.302532 Z-4.999990
G01 X564.657102 Y-2390.394287 Z-4.999990
G01 X565.856208 Y-2389.293817 Z-4.999990
G01 X566.262777 Y-2388.955969 Z-4.999990
G01 X571.689318 Y-2384.446679 Z-4.999990
G01 X573.180354 Y-2383.207667 Z-4.999990
G01 X573.335605 Y-2383.091194 Z-4.999990
G01 X575.593016 Y-2381.397353 Z-4.999990
G01 X576.877974 Y-2380.433169 Z-4.999990
G01 X577.286462 Y-2380.156929 Z-4.999990
G01 X583.130974 Y-2376.204407 Z-4.999990
G01 X584.707749 Y-2375.138087 Z-4.999990
G01 X584.861730 Y-2375.044671 Z-4.999990
G01 X587.274758 Y-2373.581010 Z-4.999990
G01 X588.635916 Y-2372.755398 Z-4.999990
G01 X589.049513 Y-2372.531511 Z-4.999990
G01 X595.254337 Y-2369.172812 Z-4.999990
G01 X596.908527 Y-2368.277378 Z-4.999990
G01 X597.063692 Y-2368.203012 Z-4.999990
G01 X599.608772 Y-2366.983389 Z-4.999990
G01 X601.036676 Y-2366.299113 Z-4.999990
G01 X601.460065 Y-2366.121256 Z-4.999990
G01 X607.964977 Y-2363.388696 Z-4.999990
G01 X609.689242 Y-2362.664373 Z-4.999990
G01 X609.848726 Y-2362.606432 Z-4.999990
G01 X612.501333 Y-2361.642785 Z-4.999990
G01 X613.986725 Y-2361.103176 Z-4.999990
G01 X614.426004 Y-2360.967737 Z-4.999990
G01 X621.168405 Y-2358.889058 Z-4.999990
G01 X622.956368 Y-2358.337849 Z-4.999990
G01 X623.123951 Y-2358.295093 Z-4.999990
G01 X625.858628 Y-2357.597637 Z-4.999990
G01 X627.392591 Y-2357.206392 Z-4.999990
G01 X627.855351 Y-2357.112610 Z-4.999990
G01 X634.770275 Y-2355.710897 Z-4.999990
G01 X636.616516 Y-2355.336642 Z-4.999990
G01 X636.796771 Y-2355.309323 Z-4.999990
G01 X639.587103 Y-2354.886243 Z-4.999990
G01 X641.161056 Y-2354.647625 Z-4.999990
G01 X641.656412 Y-2354.597728 Z-4.999990
G01 X648.676464 Y-2353.890930 Z-4.999990
G01 X650.576723 Y-2353.699612 Z-4.999990
G01 X650.775097 Y-2353.689565 Z-4.999990
G01 X653.593707 Y-2353.546930 Z-4.999990
G01 X655.199438 Y-2353.465650 Z-4.999990
G01 X655.405517 Y-2353.465650 Z-4.999990
G00 Z5.000000

G00 Z5.000000
G00 X372.614079 Y-2779.609326

G01 Z-4.999990 F100.0(Penetrate)
G01 X368.380746 Y-2779.609326 Z-4.999990 F400.000000
G01 X366.801430 Y-2779.609326 Z-4.999990
G01 X366.633226 Y-2779.609326 Z-4.999990
G01 X362.399893 Y-2779.609326 Z-4.999990
G01 X360.693605 Y-2779.609326 Z-4.999990
G01 X360.410282 Y-2779.623720 Z-4.999990
G01 X356.182396 Y-2779.838547 Z-4.999990
G01 X354.491772 Y-2779.924456 Z-4.999990
G01 X354.083425 Y-2779.965745 Z-4.999990
G01 X344.255713 Y-2780.959167 Z-4.999990
G01 X342.442548 Y-2781.142442 Z-4.999990
G01 X342.183496 Y-2781.181868 Z-4.999990
G01 X337.998366 Y-2781.818929 Z-4.999990
G01 X336.345814 Y-2782.070473 Z-4.999990
G01 X335.975764 Y-2782.145770 Z-4.999990
G01 X326.296332 Y-2784.115456 Z-4.999990
G01 X324.543027 Y-2784.472241 Z-4.999990
G01 X324.301586 Y-2784.534048 Z-4.999990
G01 X320.200530 Y-2785.584027 Z-4.999990
G01 X318.593049 Y-2785.995592 Z-4.999990
G01 X318.247580 Y-2786.102498 Z-4.999990
G01 X308.811311 Y-2789.022707 Z-4.999990
G01 X307.117667 Y-2789.546822 Z-4.999990
G01 X306.887938 Y-2789.630614 Z-4.999990
G01 X302.910750 Y-2791.080869 Z-4.999990
G01 X301.355734 Y-2791.647882 Z-4.999990
G01 X301.023050 Y-2791.788175 Z-4.999990
G01 X291.921270 Y-2795.625861 Z-4.999990
G01 X290.288445 Y-2796.314342 Z-4.999990
G01 X290.065462 Y-2796.421586 Z-4.999990
G01 X286.250495 Y-2798.256567 Z-4.999990
G01 X284.755733 Y-2798.975528 Z-4.999990
G01 X284.425956 Y-2799.154683 Z-4.999990
G01 X275.746437 Y-2803.870249 Z-4.999990
G01 X274.177112 Y-2804.722871 Z-4.999990
G01 X273.956866 Y-2804.856955 Z-4.999990
G01 X270.340894 Y-2807.058316 Z-4.999990
G01 X268.914712 Y-2807.926601 Z-4.999990
G01 X268.579940 Y-2808.153818 Z-4.999990
G01 X260.407039 Y-2813.701235 Z-4.999990
G01 X258.905334 Y-2814.720537 Z-4.999990
G01 X258.684749 Y-2814.886653 Z-4.999990
G01 X255.303134 Y-2817.433370 Z-4.999990
G01 X253.954366 Y-2818.449172 Z-4.999990
G01 X253.608898 Y-2818.737293 Z-4.999990
G01 X250.357867 Y-2821.448743 Z-4.999990
G01 X246.023188 Y-2825.064038 Z-4.999990
G01 X244.594918 Y-2826.255298 Z-4.999990
G01 X244.372160 Y-2826.460473 Z-4.999990
G01 X241.258515 Y-2829.328613 Z-4.999990
G01 X239.996615 Y-2830.491030 Z-4.999990
G01 X239.773207 Y-2830.718444 Z-4.999990
G01 X236.806544 Y-2833.738363 Z-4.999990
G01 X235.681719 Y-2834.883395 Z-4.999990
G01 X235.545772 Y-2835.021769 Z-4.999990
G01 X232.579109 Y-2838.041688 Z-4.999990
G01 X231.367021 Y-2839.275563 Z-4.999990
G01 X231.161450 Y-2839.506788 Z-4.999990
G01 X228.348852 Y-2842.670697 Z-4.999990
G01 X227.207206 Y-2843.954949 Z-4.999990
G01 X226.913752 Y-2844.319524 Z-4.999990
G01 X220.720131 Y-2852.014313 Z-4.999990
G01 X219.541458 Y-2853.478651 Z-4.999990
G01 X219.370319 Y-2853.714137 Z-4.999990
G01 X216.881401 Y-2857.138509 Z-4.999990
G01 X215.881600 Y-2858.514116 Z-4.999990
G01 X215.639877 Y-2858.883122 Z-4.999990
G01 X210.227222 Y-2867.145911 Z-4.999990
G01 X209.212040 Y-2868.695650 Z-4.999990
G01 X209.069913 Y-2868.937542 Z-4.999990
G01 X206.925419 Y-2872.587522 Z-4.999990
G01 X206.068988 Y-2874.045144 Z-4.999990
G01 X205.869936 Y-2874.424817 Z-4.999990
G01 X201.283035 Y-2883.173001 Z-4.999990
G01 X200.428635 Y-2884.802495 Z-4.999990
G01 X200.312021 Y-2885.053730 Z-4.999990
G01 X198.529618 Y-2888.893532 Z-4.999990
G01 X197.819068 Y-2890.424306 Z-4.999990
G01 X197.657298 Y-2890.821872 Z-4.999990
G01 X193.934363 Y-2899.971206 Z-4.999990
G01 X193.240802 Y-2901.675687 Z-4.999990
G01 X193.147895 Y-2901.939678 Z-4.999990
G01 X191.742682 Y-2905.932981 Z-4.999990
G01 X191.181342 Y-2907.528214 Z-4.999990
G01 X191.054822 Y-2907.951886 Z-4.999990
G01 X188.228282 Y-2917.416632 Z-4.999990
G01 X187.698071 Y-2919.192035 Z-4.999990
G01 X187.628757 Y-2919.472677 Z-4.999990
G01 X186.613406 Y-2923.582454 Z-4.999990
G01 X186.205426 Y-2925.233764 Z-4.999990
G01 X186.115312 Y-2925.692714 Z-4.999990
G01 X184.212062 Y-2935.385410 Z-4.999990
G01 X183.850168 Y-2937.228406 Z-4.999990
G01 X183.805859 Y-2937.530158 Z-4.999990
G01 X183.190671 Y-2941.718562 Z-4.999990
G01 X182.941102 Y-2943.417794 Z-4.999990
G01 X182.891883 Y-2943.922294 Z-4.999990
G01 X181.933033 Y-2953.753421 Z-4.999990
G01 X181.746907 Y-2955.661469 Z-4.999990
G01 X181.730849 Y-2955.989326 Z-4.999990
G01 X181.523556 Y-2960.217579 Z-4.999990
G01 X181.438297 Y-2961.956717 Z-4.999990
G01 X181.438297 Y-2962.298743 Z-4.999990
G01 X181.438297 Y-2966.532076 Z-4.999990
G01 X181.438297 Y-2968.162699 Z-4.999990
G01 X181.438297 Y-2968.382212 Z-4.999990
G01 X181.438297 Y-2972.615545 Z-4.999990
G01 X181.438297 Y-2974.368682 Z-4.999990
G01 X181.454440 Y-2974.698402 Z-4.999990
G01 X181.661761 Y-2978.926655 Z-4.999990
G01 X181.746907 Y-2980.663930 Z-4.999990
G01 X181.796042 Y-2981.167500 Z-4.999990
G01 X182.754920 Y-2990.998626 Z-4.999990
G01 X182.941102 Y-2992.907577 Z-4.999990
G01 X182.985609 Y-2993.210656 Z-4.999990
G01 X183.600797 Y-2997.399059 Z-4.999990
G01 X183.850168 Y-2999.096936 Z-4.999990
G01 X183.940169 Y-2999.555237 Z-4.999990
G01 X185.843419 Y-3009.247905 Z-4.999990
G01 X186.205426 Y-3011.091522 Z-4.999990
G01 X186.274937 Y-3011.372898 Z-4.999990
G01 X187.290288 Y-3015.482674 Z-4.999990
G01 X187.698071 Y-3017.133222 Z-4.999990
G01 X187.824478 Y-3017.556499 Z-4.999990
G01 X190.651046 Y-3027.021217 Z-4.999990
G01 X191.181342 Y-3028.796987 Z-4.999990
G01 X191.274278 Y-3029.061091 Z-4.999990
G01 X192.679519 Y-3033.054394 Z-4.999990
G01 X193.240802 Y-3034.649458 Z-4.999990
G01 X193.402516 Y-3035.046883 Z-4.999990
G01 X197.125450 Y-3044.196217 Z-4.999990
G01 X197.819068 Y-3045.900783 Z-4.999990
G01 X197.935484 Y-3046.151594 Z-4.999990
G01 X199.717887 Y-3049.991396 Z-4.999990
G01 X200.428635 Y-3051.522565 Z-4.999990
G01 X200.627743 Y-3051.902295 Z-4.999990
G01 X205.214673 Y-3060.650478 Z-4.999990
G01 X206.068988 Y-3062.279832 Z-4.999990
G01 X206.210579 Y-3062.520821 Z-4.999990
G01 X208.355072 Y-3066.170773 Z-4.999990
G01 X209.212040 Y-3067.629326 Z-4.999990
G01 X209.453961 Y-3067.998642 Z-4.999990
G01 X214.866645 Y-3076.261403 Z-4.999990
G01 X215.881600 Y-3077.810775 Z-4.999990
G01 X216.051780 Y-3078.044906 Z-4.999990
G01 X218.540670 Y-3081.469306 Z-4.999990
G01 X219.541458 Y-3082.846212 Z-4.999990
G01 X219.835336 Y-3083.211323 Z-4.999990
G01 X226.028957 Y-3090.906084 Z-4.999990
G01 X227.207206 Y-3092.369886 Z-4.999990
G01 X227.411310 Y-3092.599502 Z-4.999990
G01 X230.223936 Y-3095.763410 Z-4.999990
G01 X231.367021 Y-3097.049271 Z-4.999990
G01 X231.590230 Y-3097.276488 Z-4.999990
G01 X234.556894 Y-3100.296435 Z-4.999990
G01 X235.681719 Y-3101.441439 Z-4.999990
G01 X235.817637 Y-3101.579813 Z-4.999990
G01 X238.784301 Y-3104.599760 Z-4.999990
G01 X239.996586 Y-3105.833805 Z-4.999990
G01 X240.220614 Y-3106.040166 Z-4.999990
G01 X243.334259 Y-3108.908305 Z-4.999990
G01 X244.594889 Y-3110.069565 Z-4.999990
G01 X244.939539 Y-3110.356980 Z-4.999990
G01 X252.525193 Y-3116.683753 Z-4.999990
G01 X253.954338 Y-3117.875719 Z-4.999990
G01 X254.175939 Y-3118.042597 Z-4.999990
G01 X257.557525 Y-3120.589342 Z-4.999990
G01 X258.905334 Y-3121.604383 Z-4.999990
G01 X259.239457 Y-3121.831205 Z-4.999990
G01 X267.412359 Y-3127.378678 Z-4.999990
G01 X268.914684 Y-3128.398403 Z-4.999990
G01 X269.135579 Y-3128.532882 Z-4.999990
G01 X272.751495 Y-3130.734272 Z-4.999990
G01 X274.177084 Y-3131.602190 Z-4.999990
G01 X274.506494 Y-3131.781147 Z-4.999990
G01 X283.185985 Y-3136.496770 Z-4.999990
G01 X284.755705 Y-3137.349617 Z-4.999990
G01 X284.978829 Y-3137.456918 Z-4.999990
G01 X288.793768 Y-3139.291927 Z-4.999990
G01 X290.288417 Y-3140.010860 Z-4.999990
G01 X290.620988 Y-3140.151096 Z-4.999990
G01 X299.722739 Y-3143.988867 Z-4.999990
G01 X301.355705 Y-3144.677404 Z-4.999990
G01 X301.585011 Y-3144.761027 Z-4.999990
G01 X305.562171 Y-3146.211310 Z-4.999990
G01 X307.117611 Y-3146.778520 Z-4.999990
G01 X307.463248 Y-3146.885483 Z-4.999990
G01 X316.899489 Y-3149.805777 Z-4.999990
G01 X318.592992 Y-3150.329864 Z-4.999990
G01 X318.833474 Y-3150.391445 Z-4.999990
G01 X322.934501 Y-3151.441452 Z-4.999990
G01 X324.542999 Y-3151.853271 Z-4.999990
G01 X324.913556 Y-3151.928681 Z-4.999990
G01 X334.592932 Y-3153.898423 Z-4.999990
G01 X336.345786 Y-3154.255123 Z-4.999990
G01 X336.603286 Y-3154.294324 Z-4.999990
G01 X340.788415 Y-3154.931384 Z-4.999990
G01 X342.442520 Y-3155.183183 Z-4.999990
G01 X342.851742 Y-3155.224528 Z-4.999990
G01 X352.679425 Y-3156.218007 Z-4.999990
G01 X354.491772 Y-3156.401197 Z-4.999990
G01 X354.773091 Y-3156.415506 Z-4.999990
G01 X359.000977 Y-3156.630362 Z-4.999990
G01 X360.693605 Y-3156.716355 Z-4.999990
G01 X360.988781 Y-3156.716355 Z-4.999990
G01 X365.222115 Y-3156.716355 Z-4.999990
G01 X366.801430 Y-3156.716355 Z-4.999990
G01 X366.969635 Y-3156.716355 Z-4.999990
G01 X371.202968 Y-3156.716355 Z-4.999990
G01 X372.909256 Y-3156.716355 Z-4.999990
G01 X373.192607 Y-3156.701962 Z-4.999990
G01 X377.420465 Y-3156.487106 Z-4.999990
G01 X379.111089 Y-3156.401197 Z-4.999990
G01 X379.519436 Y-3156.359908 Z-4.999990
G01 X389.347148 Y-3155.366458 Z-4.999990
G01 X391.160313 Y-3155.183183 Z-4.999990
G01 X391.419364 Y-3155.143728 Z-4.999990
G01 X395.604466 Y-3154.506668 Z-4.999990
G01 X397.257018 Y-3154.255123 Z-4.999990
G01 X397.627068 Y-3154.179798 Z-4.999990
G01 X407.306472 Y-3152.210056 Z-4.999990
G01 X409.059749 Y-3151.853271 Z-4.999990
G01 X409.301219 Y-3151.791436 Z-4.999990
G01 X413.402246 Y-3150.741428 Z-4.999990
G01 X415.009728 Y-3150.329864 Z-4.999990
G01 X415.355168 Y-3150.222958 Z-4.999990
G01 X424.791409 Y-3147.302663 Z-4.999990
G01 X426.485052 Y-3146.778520 Z-4.999990
G01 X426.714781 Y-3146.694757 Z-4.999990
G01 X430.691913 Y-3145.244445 Z-4.999990
G01 X432.246930 Y-3144.677404 Z-4.999990
G01 X432.579613 Y-3144.537111 Z-4.999990
G01 X441.681365 Y-3140.699312 Z-4.999990
G01 X443.314161 Y-3140.010860 Z-4.999990
G01 X443.537117 Y-3139.903587 Z-4.999990
G01 X447.352084 Y-3138.068578 Z-4.999990
G01 X448.846818 Y-3137.349617 Z-4.999990
G01 X449.176594 Y-3137.170434 Z-4.999990
G01 X457.856056 Y-3132.454783 Z-4.999990
G01 X459.425381 Y-3131.602161 Z-4.999990
G01 X459.645628 Y-3131.468078 Z-4.999990
G01 X463.261572 Y-3129.266660 Z-4.999990
G01 X464.687753 Y-3128.398403 Z-4.999990
G01 X465.022525 Y-3128.171158 Z-4.999990
G01 X473.195371 Y-3122.623685 Z-4.999990
G01 X474.697075 Y-3121.604383 Z-4.999990
G01 X474.917632 Y-3121.438267 Z-4.999990
G01 X478.299247 Y-3118.891521 Z-4.999990
G01 X479.648015 Y-3117.875719 Z-4.999990
G01 X479.993483 Y-3117.587598 Z-4.999990
G01 X487.579137 Y-3111.260797 Z-4.999990
G01 X489.007435 Y-3110.069537 Z-4.999990
G01 X489.230165 Y-3109.864361 Z-4.999990
G01 X492.343810 Y-3106.996222 Z-4.999990
G01 X493.605710 Y-3105.833805 Z-4.999990
G01 X493.829117 Y-3105.606390 Z-4.999990
G01 X496.795781 Y-3102.586471 Z-4.999990
G01 X497.920606 Y-3101.441439 Z-4.999990
G01 X498.056524 Y-3101.303066 Z-4.999990
G01 X501.023187 Y-3098.283147 Z-4.999990
G01 X502.235304 Y-3097.049271 Z-4.999990
G01 X502.440846 Y-3096.818046 Z-4.999990
G01 X505.253444 Y-3093.654138 Z-4.999990
G01 X506.395118 Y-3092.369886 Z-4.999990
G01 X506.688545 Y-3092.005339 Z-4.999990
G01 X512.882193 Y-3084.310578 Z-4.999990
G01 X514.060866 Y-3082.846212 Z-4.999990
G01 X514.232006 Y-3082.610754 Z-4.999990
G01 X516.720895 Y-3079.186382 Z-4.999990
G01 X517.720724 Y-3077.810775 Z-4.999990
G01 X517.962419 Y-3077.441797 Z-4.999990
G01 X523.375103 Y-3069.179036 Z-4.999990
G01 X524.390256 Y-3067.629326 Z-4.999990
G01 X524.532383 Y-3067.387433 Z-4.999990
G01 X526.676905 Y-3063.737453 Z-4.999990
G01 X527.533309 Y-3062.279832 Z-4.999990
G01 X527.732360 Y-3061.900215 Z-4.999990
G01 X532.319290 Y-3053.152031 Z-4.999990
G01 X533.173689 Y-3051.522565 Z-4.999990
G01 X533.290303 Y-3051.271331 Z-4.999990
G01 X535.072706 Y-3047.431528 Z-4.999990
G01 X535.783257 Y-3045.900783 Z-4.999990
G01 X535.944998 Y-3045.503245 Z-4.999990
G01 X539.667961 Y-3036.353939 Z-4.999990
G01 X540.361522 Y-3034.649458 Z-4.999990
G01 X540.454402 Y-3034.385495 Z-4.999990
G01 X541.859614 Y-3030.392192 Z-4.999990
G01 X542.420982 Y-3028.796987 Z-4.999990
G01 X542.547503 Y-3028.373343 Z-4.999990
G01 X545.374043 Y-3018.908598 Z-4.999990
G01 X545.904226 Y-3017.133222 Z-4.999990
G01 X545.973568 Y-3016.852581 Z-4.999990
G01 X546.988919 Y-3012.742832 Z-4.999990
G01 X547.396899 Y-3011.091522 Z-4.999990
G01 X547.487013 Y-3010.632600 Z-4.999990
G01 X549.390263 Y-3000.939904 Z-4.999990
G01 X549.752156 Y-2999.096936 Z-4.999990
G01 X549.796465 Y-2998.795184 Z-4.999990
G01 X550.411653 Y-2994.606781 Z-4.999990
G01 X550.661222 Y-2992.907577 Z-4.999990
G01 X550.710414 Y-2992.403077 Z-4.999990
G01 X551.669292 Y-2982.571950 Z-4.999990
G01 X551.855389 Y-2980.663930 Z-4.999990
G01 X551.871476 Y-2980.336073 Z-4.999990
G01 X552.078768 Y-2976.107820 Z-4.999990
G01 X552.164027 Y-2974.368682 Z-4.999990
G01 X552.164027 Y-2974.026656 Z-4.999990
G01 X552.164027 Y-2969.793323 Z-4.999990
G01 X552.164027 Y-2968.162699 Z-4.999990
G01 X552.164027 Y-2967.943187 Z-4.999990
G01 X552.164027 Y-2963.709854 Z-4.999990
G01 X552.164027 Y-2961.956717 Z-4.999990
G01 X552.147884 Y-2961.626997 Z-4.999990
G01 X551.940564 Y-2957.398744 Z-4.999990
G01 X551.855389 Y-2955.661469 Z-4.999990
G01 X551.806283 Y-2955.157871 Z-4.999990
G01 X550.847404 Y-2945.326745 Z-4.999990
G01 X550.661222 Y-2943.417794 Z-4.999990
G01 X550.616688 Y-2943.114687 Z-4.999990
G01 X550.001528 Y-2938.926283 Z-4.999990
G01 X549.752156 Y-2937.228406 Z-4.999990
G01 X549.662156 Y-2936.770077 Z-4.999990
G01 X547.758905 Y-2927.077409 Z-4.999990
G01 X547.396899 Y-2925.233764 Z-4.999990
G01 X547.327359 Y-2924.952360 Z-4.999990
G01 X546.312009 Y-2920.842612 Z-4.999990
G01 X545.904226 Y-2919.192035 Z-4.999990
G01 X545.777818 Y-2918.768730 Z-4.999990
G01 X542.951278 Y-2909.303985 Z-4.999990
G01 X542.420982 Y-2907.528214 Z-4.999990
G01 X542.328018 Y-2907.264082 Z-4.999990
G01 X540.922806 Y-2903.270779 Z-4.999990
G01 X540.361522 Y-2901.675687 Z-4.999990
G01 X540.199809 Y-2901.278262 Z-4.999990
G01 X536.476874 Y-2892.128928 Z-4.999990
G01 X535.783257 Y-2890.424306 Z-4.999990
G01 X535.666840 Y-2890.173495 Z-4.999990
G01 X533.884438 Y-2886.333664 Z-4.999990
G01 X533.173689 Y-2884.802495 Z-4.999990
G01 X532.974581 Y-2884.422737 Z-4.999990
G01 X528.387652 Y-2875.674554 Z-4.999990
G01 X527.533337 Y-2874.045144 Z-4.999990
G01 X527.391746 Y-2873.804182 Z-4.999990
G01 X525.247252 Y-2870.154202 Z-4.999990
G01 X524.390284 Y-2868.695650 Z-4.999990
G01 X524.148335 Y-2868.326306 Z-4.999990
G01 X518.735680 Y-2860.063516 Z-4.999990
G01 X517.720724 Y-2858.514116 Z-4.999990
G01 X517.550544 Y-2858.279985 Z-4.999990
G01 X515.061655 Y-2854.855585 Z-4.999990
G01 X514.060866 Y-2853.478651 Z-4.999990
G01 X513.766988 Y-2853.113540 Z-4.999990
G01 X507.573368 Y-2845.418779 Z-4.999990
G01 X506.395118 Y-2843.954949 Z-4.999990
G01 X506.190987 Y-2843.725333 Z-4.999990
G01 X503.378388 Y-2840.561424 Z-4.999990
G01 X502.235304 Y-2839.275563 Z-4.999990
G01 X502.012066 Y-2839.048346 Z-4.999990
G01 X499.045402 Y-2836.028399 Z-4.999990
G01 X497.920606 Y-2834.883395 Z-4.999990
G01 X497.784659 Y-2834.745022 Z-4.999990
G01 X494.817996 Y-2831.725075 Z-4.999990
G01 X493.605710 Y-2830.491030 Z-4.999990
G01 X493.381682 Y-2830.284669 Z-4.999990
G01 X490.268037 Y-2827.416529 Z-4.999990
G01 X489.007407 Y-2826.255298 Z-4.999990
G01 X488.662814 Y-2825.967882 Z-4.999990
G01 X481.077132 Y-2819.641109 Z-4.999990
G01 X479.648015 Y-2818.449172 Z-4.999990
G01 X479.426414 Y-2818.282294 Z-4.999990
G01 X476.044827 Y-2815.735549 Z-4.999990
G01 X474.697047 Y-2814.720537 Z-4.999990
G01 X474.362924 Y-2814.493743 Z-4.999990
G01 X466.190022 Y-2808.946298 Z-4.999990
G01 X464.687725 Y-2807.926601 Z-4.999990
G01 X464.466858 Y-2807.792122 Z-4.999990
G01 X460.850914 Y-2805.590761 Z-4.999990
G01 X459.425353 Y-2804.722871 Z-4.999990
G01 X459.095972 Y-2804.543914 Z-4.999990
G01 X450.416481 Y-2799.828347 Z-4.999990
G01 X448.846789 Y-2798.975528 Z-4.999990
G01 X448.623693 Y-2798.868227 Z-4.999990
G01 X444.808725 Y-2797.033246 Z-4.999990
G01 X443.314105 Y-2796.314342 Z-4.999990
G01 X442.981591 Y-2796.174134 Z-4.999990
G01 X433.879811 Y-2792.336420 Z-4.999990
G01 X432.246901 Y-2791.647910 Z-4.999990
G01 X432.017596 Y-2791.564288 Z-4.999990
G01 X428.040436 Y-2790.114032 Z-4.999990
G01 X426.484996 Y-2789.546850 Z-4.999990
G01 X426.139415 Y-2789.439888 Z-4.999990
G01 X416.703174 Y-2786.519650 Z-4.999990
G01 X415.009671 Y-2785.995592 Z-4.999990
G01 X414.769246 Y-2785.934011 Z-4.999990
G01 X410.668190 Y-2784.884031 Z-4.999990
G01 X409.059721 Y-2784.472241 Z-4.999990
G01 X408.689191 Y-2784.396831 Z-4.999990
G01 X399.009816 Y-2782.427146 Z-4.999990
G01 X397.256990 Y-2782.070473 Z-4.999990
G01 X396.999491 Y-2782.031273 Z-4.999990
G01 X392.814361 Y-2781.394212 Z-4.999990
G01 X391.160284 Y-2781.142442 Z-4.999990
G01 X390.751090 Y-2781.101068 Z-4.999990
G01 X380.923379 Y-2780.107674 Z-4.999990
G01 X379.111089 Y-2779.924456 Z-4.999990
G01 X378.829770 Y-2779.910175 Z-4.999990
G01 X374.601883 Y-2779.695319 Z-4.999990
G01 X372.909256 Y-2779.609326 Z-4.999990
G01 X372.614079 Y-2779.609326 Z-4.999990
G00 Z5.000000

G00 Z5.000000
G00 X361.079318 Y-2793.043245

G01 Z-3.059571 F100.0(Penetrate)
G01 X362.490429 Y-2794.983664 Z-4.999990 F400.000000
G01 X365.312652 Y-2794.983664 Z-4.999990
G01 X366.801430 Y-2794.983664 Z-4.999990
G01 X366.879098 Y-2794.983664 Z-4.999990
G01 X371.112431 Y-2794.983664 Z-4.999990
G01 X372.474266 Y-2794.983664 Z-4.999990
G01 X372.413984 Y-2794.980616 Z-4.999990
G01 X376.641870 Y-2795.195387 Z-4.999990
G01 X377.992840 Y-2795.263995 Z-4.999990
G01 X377.973987 Y-2795.262104 Z-4.999990
G01 X387.801727 Y-2796.255273 Z-4.999990
G01 X389.185971 Y-2796.395170 Z-4.999990
G01 X389.107767 Y-2796.383260 Z-4.999990
G01 X393.292925 Y-2797.020180 Z-4.999990
G01 X394.611270 Y-2797.220840 Z-4.999990
G01 X394.563038 Y-2797.211018 Z-4.999990
G01 X404.242498 Y-2799.180421 Z-4.999990
G01 X405.576563 Y-2799.451863 Z-4.999990
G01 X405.490033 Y-2799.429708 Z-4.999990
G01 X409.591117 Y-2800.479575 Z-4.999990
G01 X410.872604 Y-2800.807630 Z-4.999990
G01 X410.812039 Y-2800.788891 Z-4.999990
G01 X420.248336 Y-2803.708987 Z-4.999990
G01 X421.535665 Y-2804.107344 Z-4.999990
G01 X421.449220 Y-2804.075820 Z-4.999990
G01 X425.426409 Y-2805.526075 Z-4.999990
G01 X426.666098 Y-2805.978111 Z-4.999990
G01 X426.608130 Y-2805.953670 Z-4.999990
G01 X435.709881 Y-2809.791413 Z-4.999990
G01 X436.952308 Y-2810.315302 Z-4.999990
G01 X436.873257 Y-2810.277258 Z-4.999990
G01 X440.688196 Y-2812.112295 Z-4.999990
G01 X441.880670 Y-2812.685884 Z-4.999990
G01 X441.838111 Y-2812.662770 Z-4.999990
G01 X450.517488 Y-2817.378562 Z-4.999990
G01 X451.715240 Y-2818.029366 Z-4.999990
G01 X451.649820 Y-2817.989517 Z-4.999990
G01 X455.265708 Y-2820.191019 Z-4.999990
G01 X456.404954 Y-2820.884637 Z-4.999990
G01 X456.388642 Y-2820.873574 Z-4.999990
G01 X464.561318 Y-2826.421329 Z-4.999990
G01 X465.713180 Y-2827.203254 Z-4.999990
G01 X465.666613 Y-2827.168145 Z-4.999990
G01 X469.048115 Y-2829.715003 Z-4.999990
G01 X470.127700 Y-2830.528142 Z-4.999990
G01 X470.146326 Y-2830.543664 Z-4.999990
G01 X477.731811 Y-2836.870691 Z-4.999990
G01 X478.834933 Y-2837.790792 Z-4.999990
G01 X478.811311 Y-2837.769033 Z-4.999990
G01 X481.924899 Y-2840.637229 Z-4.999990
G01 X482.937851 Y-2841.570369 Z-4.999990
G01 X482.924022 Y-2841.556286 Z-4.999990
G01 X485.890686 Y-2844.576233 Z-4.999990
G01 X486.953168 Y-2845.657793 Z-4.999990
G01 X487.026771 Y-2845.732723 Z-4.999990
G01 X489.993435 Y-2848.752670 Z-4.999990
G01 X490.968626 Y-2849.745359 Z-4.999990
G01 X490.949886 Y-2849.724249 Z-4.999990
G01 X493.762456 Y-2852.888185 Z-4.999990
G01 X494.682670 Y-2853.923348 Z-4.999990
G01 X494.712360 Y-2853.960263 Z-4.999990
G01 X500.905839 Y-2861.655137 Z-4.999990
G01 X501.819901 Y-2862.790771 Z-4.999990
G01 X501.794811 Y-2862.756255 Z-4.999990
G01 X504.283672 Y-2866.180683 Z-4.999990
G01 X505.089163 Y-2867.288998 Z-4.999990
G01 X505.102286 Y-2867.309007 Z-4.999990
G01 X510.514772 Y-2875.571910 Z-4.999990
G01 X511.300931 Y-2876.772060 Z-4.999990
G01 X511.275587 Y-2876.728964 Z-4.999990
G01 X513.420053 Y-2880.378944 Z-4.999990
G01 X514.110086 Y-2881.553440 Z-4.999990
G01 X514.116549 Y-2881.565773 Z-4.999990
G01 X518.703337 Y-2890.314013 Z-4.999990
G01 X519.365007 Y-2891.576026 Z-4.999990
G01 X519.343445 Y-2891.529544 Z-4.999990
G01 X521.125792 Y-2895.369375 Z-4.999990
G01 X521.698533 Y-2896.603251 Z-4.999990
G01 X521.704460 Y-2896.617814 Z-4.999990
G01 X525.427366 Y-2905.767176 Z-4.999990
G01 X525.965197 Y-2907.088935 Z-4.999990
G01 X525.949590 Y-2907.044598 Z-4.999990
G01 X527.354803 Y-2911.037902 Z-4.999990
G01 X527.807572 Y-2912.324496 Z-4.999990
G01 X527.815785 Y-2912.352041 Z-4.999990
G01 X530.642353 Y-2921.816759 Z-4.999990
G01 X531.054482 Y-2923.196797 Z-4.999990
G01 X531.045536 Y-2923.160503 Z-4.999990
G01 X532.060915 Y-2927.270251 Z-4.999990
G01 X532.390212 Y-2928.603102 Z-4.999990
G01 X532.400457 Y-2928.655313 Z-4.999990
G01 X534.303820 Y-2938.347982 Z-4.999990
G01 X534.586098 Y-2939.785452 Z-4.999990
G01 X534.582881 Y-2939.763665 Z-4.999990
G01 X535.198126 Y-2943.952068 Z-4.999990
G01 X535.399802 Y-2945.325023 Z-4.999990
G01 X535.408550 Y-2945.414798 Z-4.999990
G01 X536.367513 Y-2955.245896 Z-4.999990
G01 X536.513338 Y-2956.741053 Z-4.999990
G01 X536.513338 Y-2956.740912 Z-4.999990
G01 X536.720658 Y-2960.969165 Z-4.999990
G01 X536.789690 Y-2962.376551 Z-4.999990
G01 X536.789690 Y-2962.386147 Z-4.999990
G01 X536.789690 Y-2966.619480 Z-4.999990
G01 X536.789690 Y-2968.162699 Z-4.999990
G01 X536.789690 Y-2968.294836 Z-4.999990
G01 X536.789690 Y-2972.528169 Z-4.999990
G01 X536.789690 Y-2973.948904 Z-4.999990
G01 X536.789774 Y-2973.946872 Z-4.999990
G01 X536.582454 Y-2978.175126 Z-4.999990
G01 X536.513338 Y-2979.584402 Z-4.999990
G01 X536.504504 Y-2979.675108 Z-4.999990
G01 X535.545541 Y-2989.506235 Z-4.999990
G01 X535.399802 Y-2991.000461 Z-4.999990
G01 X535.403188 Y-2990.977290 Z-4.999990
G01 X534.787972 Y-2995.165694 Z-4.999990
G01 X534.586098 Y-2996.540003 Z-4.999990
G01 X534.575713 Y-2996.592835 Z-4.999990
G01 X532.672378 Y-3006.285503 Z-4.999990
G01 X532.390212 Y-3007.722353 Z-4.999990
G01 X532.399384 Y-3007.685269 Z-4.999990
G01 X531.383977 Y-3011.795046 Z-4.999990
G01 X531.054482 Y-3013.128658 Z-4.999990
G01 X531.046157 Y-3013.156542 Z-4.999990
G01 X528.219588 Y-3022.621288 Z-4.999990
G01 X527.807572 Y-3024.000903 Z-4.999990
G01 X527.823236 Y-3023.956396 Z-4.999990
G01 X526.417995 Y-3027.949700 Z-4.999990
G01 X525.965197 Y-3029.236435 Z-4.999990
G01 X525.959214 Y-3029.251139 Z-4.999990
G01 X522.236308 Y-3038.400473 Z-4.999990
G01 X521.698533 Y-3039.722092 Z-4.999990
G01 X521.719926 Y-3039.676005 Z-4.999990
G01 X519.937551 Y-3043.515836 Z-4.999990
G01 X519.365007 Y-3044.749288 Z-4.999990
G01 X519.358601 Y-3044.761508 Z-4.999990
G01 X514.771784 Y-3053.509748 Z-4.999990
G01 X514.110086 Y-3054.771789 Z-4.999990
G01 X514.134865 Y-3054.729625 Z-4.999990
G01 X511.990428 Y-3058.379605 Z-4.999990
G01 X511.300931 Y-3059.553170 Z-4.999990
G01 X511.288005 Y-3059.572869 Z-4.999990
G01 X505.875490 Y-3067.835743 Z-4.999990
G01 X505.089163 Y-3069.036175 Z-4.999990
G01 X505.113293 Y-3069.002986 Z-4.999990
G01 X502.624432 Y-3072.427442 Z-4.999990
G01 X501.819901 Y-3073.534374 Z-4.999990
G01 X501.790634 Y-3073.570753 Z-4.999990
G01 X495.597126 Y-3081.265598 Z-4.999990
G01 X494.682670 Y-3082.401768 Z-4.999990
G01 X494.699998 Y-3082.382267 Z-4.999990
G01 X491.887400 Y-3085.546204 Z-4.999990
G01 X490.968626 Y-3086.579758 Z-4.999990
G01 X490.982342 Y-3086.565816 Z-4.999990
G01 X488.015678 Y-3089.585763 Z-4.999990
G01 X486.953168 Y-3090.667324 Z-4.999990
G01 X486.879592 Y-3090.742225 Z-4.999990
G01 X483.912929 Y-3093.762144 Z-4.999990
G01 X482.937879 Y-3094.754692 Z-4.999990
G01 X482.962771 Y-3094.731775 Z-4.999990
G01 X479.849183 Y-3097.599971 Z-4.999990
G01 X478.834933 Y-3098.534268 Z-4.999990
G01 X478.815459 Y-3098.550524 Z-4.999990
G01 X471.229975 Y-3104.877523 Z-4.999990
G01 X470.127700 Y-3105.796918 Z-4.999990
G01 X470.175282 Y-3105.761104 Z-4.999990
G01 X466.793780 Y-3108.307962 Z-4.999990
G01 X465.713180 Y-3109.121835 Z-4.999990
G01 X465.728843 Y-3109.111195 Z-4.999990
G01 X457.556167 Y-3114.658978 Z-4.999990
G01 X456.404926 Y-3115.440480 Z-4.999990
G01 X456.470966 Y-3115.400263 Z-4.999990
G01 X452.855107 Y-3117.601766 Z-4.999990
G01 X451.715240 Y-3118.295779 Z-4.999990
G01 X451.757347 Y-3118.272890 Z-4.999990
G01 X443.077998 Y-3122.988739 Z-4.999990
G01 X441.880642 Y-3123.639346 Z-4.999990
G01 X441.959805 Y-3123.601246 Z-4.999990
G01 X438.144866 Y-3125.436311 Z-4.999990
G01 X436.952280 Y-3126.009984 Z-4.999990
G01 X437.010079 Y-3125.985600 Z-4.999990
G01 X427.908356 Y-3129.823428 Z-4.999990
G01 X426.666070 Y-3130.347232 Z-4.999990
G01 X426.752091 Y-3130.315877 Z-4.999990
G01 X422.774931 Y-3131.766132 Z-4.999990
G01 X421.535608 Y-3132.218055 Z-4.999990
G01 X421.596314 Y-3132.199259 Z-4.999990
G01 X412.160045 Y-3135.119412 Z-4.999990
G01 X410.872576 Y-3135.517825 Z-4.999990
G01 X410.958117 Y-3135.495953 Z-4.999990
G01 X406.857033 Y-3136.545848 Z-4.999990
G01 X405.576534 Y-3136.873649 Z-4.999990
G01 X405.625246 Y-3136.863743 Z-4.999990
G01 X395.945786 Y-3138.833231 Z-4.999990
G01 X394.611241 Y-3139.104757 Z-4.999990
G01 X394.687949 Y-3139.093101 Z-4.999990
G01 X390.502791 Y-3139.730048 Z-4.999990
G01 X389.185942 Y-3139.930454 Z-4.999990
G01 X389.205642 Y-3139.928451 Z-4.999990
G01 X379.377930 Y-3140.921675 Z-4.999990
G01 X377.992812 Y-3141.061658 Z-4.999990
G01 X378.051147 Y-3141.058694 Z-4.999990
G01 X373.823260 Y-3141.273465 Z-4.999990
G01 X372.474266 Y-3141.342017 Z-4.999990
G01 X372.523542 Y-3141.342017 Z-4.999990
G01 X368.290209 Y-3141.342017 Z-4.999990
G01 X366.801430 Y-3141.342017 Z-4.999990
G01 X366.723763 Y-3141.342017 Z-4.999990
G01 X362.490429 Y-3141.342017 Z-4.999990
G01 X361.128594 Y-3141.342017 Z-4.999990
G01 X361.188877 Y-3141.345065 Z-4.999990
G01 X356.960991 Y-3141.130294 Z-4.999990
G01 X355.610021 Y-3141.061658 Z-4.999990
G01 X355.628845 Y-3141.063577 Z-4.999990
G01 X345.801134 Y-3140.070352 Z-4.999990
G01 X344.416862 Y-3139.930454 Z-4.999990
G01 X344.495066 Y-3139.942364 Z-4.999990
G01 X340.309908 Y-3139.305417 Z-4.999990
G01 X338.991535 Y-3139.104757 Z-4.999990
G01 X339.039738 Y-3139.114578 Z-4.999990
G01 X329.360306 Y-3137.145119 Z-4.999990
G01 X328.026213 Y-3136.873649 Z-4.999990
G01 X328.112715 Y-3136.895804 Z-4.999990
G01 X324.011631 Y-3135.845909 Z-4.999990
G01 X322.730144 Y-3135.517825 Z-4.999990
G01 X322.790653 Y-3135.536565 Z-4.999990
G01 X313.354383 Y-3132.616440 Z-4.999990
G01 X312.067026 Y-3132.218055 Z-4.999990
G01 X312.153415 Y-3132.249551 Z-4.999990
G01 X308.176254 Y-3130.799296 Z-4.999990
G01 X306.936537 Y-3130.347232 Z-4.999990
G01 X306.994477 Y-3130.371672 Z-4.999990
G01 X297.892726 Y-3126.533845 Z-4.999990
G01 X296.650271 Y-3126.009956 Z-4.999990
G01 X296.729293 Y-3126.047972 Z-4.999990
G01 X292.914354 Y-3124.212934 Z-4.999990
G01 X291.721880 Y-3123.639318 Z-4.999990
G01 X291.764383 Y-3123.662432 Z-4.999990
G01 X283.085005 Y-3118.946583 Z-4.999990
G01 X281.887198 Y-3118.295779 Z-4.999990
G01 X281.952617 Y-3118.335600 Z-4.999990
G01 X278.336758 Y-3116.134097 Z-4.999990
G01 X277.197483 Y-3115.440452 Z-4.999990
G01 X277.213767 Y-3115.451515 Z-4.999990
G01 X269.041063 Y-3109.903760 Z-4.999990
G01 X267.889173 Y-3109.121835 Z-4.999990
G01 X267.935740 Y-3109.156887 Z-4.999990
G01 X264.554238 Y-3106.610057 Z-4.999990
G01 X263.474625 Y-3105.796918 Z-4.999990
G01 X263.455998 Y-3105.781368 Z-4.999990
G01 X255.870514 Y-3099.454369 Z-4.999990
G01 X254.767364 Y-3098.534268 Z-4.999990
G01 X254.790986 Y-3098.556027 Z-4.999990
G01 X251.677397 Y-3095.687831 Z-4.999990
G01 X250.664417 Y-3094.754692 Z-4.999990
G01 X250.678274 Y-3094.768774 Z-4.999990
G01 X247.711582 Y-3091.748856 Z-4.999990
G01 X246.649100 Y-3090.667295 Z-4.999990
G01 X246.575525 Y-3090.592394 Z-4.999990
G01 X243.608861 Y-3087.572475 Z-4.999990
G01 X242.633671 Y-3086.579758 Z-4.999990
G01 X242.652439 Y-3086.600868 Z-4.999990
G01 X239.839840 Y-3083.436931 Z-4.999990
G01 X238.919655 Y-3082.401768 Z-4.999990
G01 X238.889965 Y-3082.364882 Z-4.999990
G01 X232.696457 Y-3074.670008 Z-4.999990
G01 X231.782396 Y-3073.534374 Z-4.999990
G01 X231.807485 Y-3073.568918 Z-4.999990
G01 X229.318652 Y-3070.144462 Z-4.999990
G01 X228.513133 Y-3069.036175 Z-4.999990
G01 X228.500038 Y-3069.016166 Z-4.999990
G01 X223.087524 Y-3060.753292 Z-4.999990
G01 X222.301394 Y-3059.553170 Z-4.999990
G01 X222.326709 Y-3059.596265 Z-4.999990
G01 X220.182272 Y-3055.946285 Z-4.999990
G01 X219.492239 Y-3054.771789 Z-4.999990
G01 X219.485776 Y-3054.759484 Z-4.999990
G01 X214.898959 Y-3046.011245 Z-4.999990
G01 X214.237289 Y-3044.749288 Z-4.999990
G01 X214.258879 Y-3044.795770 Z-4.999990
G01 X212.476505 Y-3040.955939 Z-4.999990
G01 X211.903763 Y-3039.722092 Z-4.999990
G01 X211.897836 Y-3039.707529 Z-4.999990
G01 X208.174930 Y-3030.558195 Z-4.999990
G01 X207.637127 Y-3029.236435 Z-4.999990
G01 X207.652734 Y-3029.280801 Z-4.999990
G01 X206.247493 Y-3025.287497 Z-4.999990
G01 X205.794752 Y-3024.000903 Z-4.999990
G01 X205.786540 Y-3023.973386 Z-4.999990
G01 X202.959943 Y-3014.508669 Z-4.999990
G01 X202.547814 Y-3013.128658 Z-4.999990
G01 X202.556789 Y-3013.164952 Z-4.999990
G01 X201.541381 Y-3009.055204 Z-4.999990
G01 X201.212084 Y-3007.722353 Z-4.999990
G01 X201.201840 Y-3007.670170 Z-4.999990
G01 X199.298505 Y-2997.977502 Z-4.999990
G01 X199.016226 Y-2996.540003 Z-4.999990
G01 X199.019415 Y-2996.561819 Z-4.999990
G01 X198.404199 Y-2992.373415 Z-4.999990
G01 X198.202523 Y-2991.000461 Z-4.999990
G01 X198.193774 Y-2990.910686 Z-4.999990
G01 X197.234811 Y-2981.079559 Z-4.999990
G01 X197.088959 Y-2979.584402 Z-4.999990
G01 X197.088987 Y-2979.584543 Z-4.999990
G01 X196.881638 Y-2975.356290 Z-4.999990
G01 X196.812635 Y-2973.948904 Z-4.999990
G01 X196.812635 Y-2973.939280 Z-4.999990
G01 X196.812635 Y-2969.705947 Z-4.999990
G01 X196.812635 Y-2968.162699 Z-4.999990
G01 X196.812635 Y-2968.030591 Z-4.999990
G01 X196.812635 Y-2963.797258 Z-4.999990
G01 X196.812635 Y-2962.376551 Z-4.999990
G01 X196.812522 Y-2962.378583 Z-4.999990
G01 X197.019871 Y-2958.150330 Z-4.999990
G01 X197.088959 Y-2956.741053 Z-4.999990
G01 X197.097820 Y-2956.650347 Z-4.999990
G01 X198.056783 Y-2946.819249 Z-4.999990
G01 X198.202523 Y-2945.325023 Z-4.999990
G01 X198.199108 Y-2945.348194 Z-4.999990
G01 X198.814352 Y-2941.159790 Z-4.999990
G01 X199.016226 Y-2939.785452 Z-4.999990
G01 X199.026584 Y-2939.732649 Z-4.999990
G01 X200.929947 Y-2930.039980 Z-4.999990
G01 X201.212084 Y-2928.603102 Z-4.999990
G01 X201.202940 Y-2928.640186 Z-4.999990
G01 X202.218319 Y-2924.530410 Z-4.999990
G01 X202.547814 Y-2923.196797 Z-4.999990
G01 X202.556168 Y-2923.168885 Z-4.999990
G01 X205.382736 Y-2913.704140 Z-4.999990
G01 X205.794752 Y-2912.324496 Z-4.999990
G01 X205.779089 Y-2912.369003 Z-4.999990
G01 X207.184330 Y-2908.375699 Z-4.999990
G01 X207.637127 Y-2907.088935 Z-4.999990
G01 X207.643110 Y-2907.074232 Z-4.999990
G01 X211.365988 Y-2897.924869 Z-4.999990
